(/Applications/pcbgcode.repo/pcb-gcode.ulp)
(Copyright 2005 - 2012 by John Johnson)
(See readme.txt for licensing terms.)
(This file generated from the board:)
(.../Wavolver_II/cgs_simple_wave_folder.brd)
(Current profile is .../pcbgcode.repo/profiles/mach.pp  )
(This file generated 8/14/15 11:58 PM)
(Settings from pcb-machine.h)
(spindle on time = 0.0000)
(spindle speed = 15000.0000)
(milling depth = -0.0630)
(tool change at 0.0000  0.0000  3.0000  )
(feed rate xy = F10    )
(feed rate z  = F5     )
(Z Axis Settings)
(  High     Up        Down     Drill)
(1.0000  	0.0500  	-0.0040 	-0.0730 )
(Settings from pcb-defaults.h)
(isolate min = 0.0010)
(isolate max = 0.0050)
(isolate step = 0.0010)
(Generated bottom outlines, bottom drill, )
(Unit of measure: inch)
(Inch Mode)
G20
(Absolute Coordinates)
G90
S15000
G00 Z1.0000  
G00 X0.0000  Y0.0000  
M03
G04 P0.000000
G00 Z0.0500  
G00 X-0.0800 Y-0.0300 
G01 Z-0.0630 F5     
G01 X-1.2400 Y-0.0300 F10    
G01 X-1.8600 Y-0.0100 
G01 X-2.0200 Y-0.0100 
G01 X-2.0800 Y0.0500  
G01 X-2.0800 Y0.9900  
G01 X-1.9200 Y1.1300  
G01 X-0.2000 Y1.1300  
G01 X0.0200  Y0.9500  
G01 X0.0200  Y0.1500  
G01 X-0.0800 Y-0.0300 
G00 Z1.0000  
M05
M02
