(/Applications/pcbgcode.repo/pcb-gcode.ulp)
(Copyright 2005 - 2012 by John Johnson)
(See readme.txt for licensing terms.)
(This file generated from the board:)
(.../Wavolver_II/cgs_simple_wave_folder.brd)
(Current profile is .../pcbgcode.repo/profiles/mach.pp  )
(This file generated 8/14/15 11:58 PM)
(Settings from pcb-machine.h)
(spindle on time = 0.0000)
(  Tool Size)
(0.0100  )
(spindle speed = 30000.0000)
(tool change at 0.0000  0.0000  3.0000  )
(feed rate xy = F20    )
(feed rate z  = F10    )
(Z Axis Settings)
(  High     Up        Down     Drill)
(1.0000  	0.0500  	-0.0040 	-0.0730 )
(Settings from pcb-defaults.h)
(isolate min = 0.0010)
(isolate max = 0.0050)
(isolate step = 0.0010)
(Generated bottom outlines, bottom drill, )
(Unit of measure: inch)
(Inch Mode)
G20
(Absolute Coordinates)
G90
S30000
G00 Z1.0000  
G00 X0.0000  Y0.0000  
M03
G04 P0.000000
G00 Z0.0500  
G00 X-0.0516 Y0.1265  
G01 Z-0.0040 F10    
G01 X-0.0525 Y0.1257  F20    
G01 X-0.0534 Y0.1248  
G01 X-0.0545 Y0.1241  
G01 X-0.1075 Y0.0807  
G01 X-0.1084 Y0.0798  
G01 X-0.1095 Y0.0791  
G01 X-0.1105 Y0.0783  
G01 X-0.1116 Y0.0777  
G01 X-0.1127 Y0.0770  
G01 X-0.1139 Y0.0765  
G01 X-0.1150 Y0.0758  
G01 X-0.1162 Y0.0755  
G01 X-0.1174 Y0.0750  
G01 X-0.1187 Y0.0747  
G01 X-0.1199 Y0.0744  
G01 X-0.1212 Y0.0742  
G01 X-0.1224 Y0.0740  
G01 X-0.1237 Y0.0740  
G01 X-0.1250 Y0.0739  
G01 X-0.1263 Y0.0740  
G01 X-0.7615 Y0.0740  
G01 X-0.7658 Y0.0681  
G01 X-0.7712 Y0.0626  
G01 X-0.7775 Y0.0581  
G01 X-0.7843 Y0.0546  
G01 X-0.7917 Y0.0522  
G01 X-0.7993 Y0.0510  
G01 X-0.8070 Y0.0510  
G01 X-0.8146 Y0.0522  
G01 X-0.8220 Y0.0546  
G01 X-0.8288 Y0.0581  
G01 X-0.8351 Y0.0626  
G01 X-0.8405 Y0.0681  
G01 X-0.8451 Y0.0743  
G01 X-0.8486 Y0.0812  
G01 X-0.8509 Y0.0885  
G01 X-0.8521 Y0.0961  
G01 X-0.8521 Y0.1039  
G01 X-0.8510 Y0.1111  
G01 X-0.8510 Y0.1740  
G01 X-1.5992 Y0.1740  
G01 X-1.6009 Y0.1739  
G01 X-1.6017 Y0.1740  
G01 X-1.6026 Y0.1740  
G01 X-1.6043 Y0.1743  
G01 X-1.6060 Y0.1746  
G01 X-1.6068 Y0.1748  
G01 X-1.6076 Y0.1750  
G01 X-1.6092 Y0.1757  
G01 X-1.8256 Y0.2494  
G01 X-1.8274 Y0.2490  
G01 X-1.8776 Y0.2490  
G01 X-1.8826 Y0.2500  
G01 X-1.8873 Y0.2520  
G01 X-1.8916 Y0.2548  
G01 X-1.8952 Y0.2584  
G01 X-1.9452 Y0.3084  
G01 X-1.9480 Y0.3127  
G01 X-1.9500 Y0.3174  
G01 X-1.9510 Y0.3224  
G01 X-1.9510 Y0.4526  
G01 X-1.9500 Y0.4576  
G01 X-1.9480 Y0.4623  
G01 X-1.9452 Y0.4666  
G01 X-1.9416 Y0.4702  
G01 X-1.7993 Y0.6125  
G01 X-1.9416 Y0.7548  
G01 X-1.9452 Y0.7584  
G01 X-1.9480 Y0.7627  
G01 X-1.9500 Y0.7674  
G01 X-1.9510 Y0.7724  
G01 X-1.9510 Y0.9376  
G01 X-1.9500 Y0.9426  
G01 X-1.9480 Y0.9473  
G01 X-1.9452 Y0.9516  
G01 X-1.9152 Y0.9816  
G01 X-1.9116 Y0.9852  
G01 X-1.9073 Y0.9880  
G01 X-1.9026 Y0.9900  
G01 X-1.8976 Y0.9910  
G01 X-1.7716 Y0.9910  
G01 X-1.7706 Y0.9911  
G01 X-1.7690 Y0.9910  
G01 X-1.7674 Y0.9910  
G01 X-1.7665 Y0.9908  
G01 X-1.7655 Y0.9907  
G01 X-1.7640 Y0.9903  
G01 X-1.7624 Y0.9900  
G01 X-1.7615 Y0.9896  
G01 X-1.7605 Y0.9894  
G01 X-1.7591 Y0.9886  
G01 X-1.7577 Y0.9880  
G01 X-1.7569 Y0.9875  
G01 X-1.7560 Y0.9870  
G01 X-1.7547 Y0.9861  
G01 X-1.7534 Y0.9852  
G01 X-1.7527 Y0.9845  
G01 X-1.7519 Y0.9839  
G01 X-1.7509 Y0.9827  
G01 X-1.7498 Y0.9816  
G01 X-1.7493 Y0.9808  
G01 X-1.7486 Y0.9800  
G01 X-1.7478 Y0.9786  
G01 X-1.7470 Y0.9773  
G01 X-1.7466 Y0.9764  
G01 X-1.7461 Y0.9755  
G01 X-1.7456 Y0.9740  
G01 X-1.7450 Y0.9726  
G01 X-1.7448 Y0.9716  
G01 X-1.7445 Y0.9707  
G01 X-1.7443 Y0.9691  
G01 X-1.7440 Y0.9676  
G01 X-1.7440 Y0.9666  
G01 X-1.7264 Y0.8217  
G01 X-1.7251 Y0.8204  
G01 X-1.7216 Y0.8152  
G01 X-1.7192 Y0.8093  
G01 X-1.7184 Y0.8052  
G01 X-1.5596 Y0.6464  
G01 X-1.5189 Y0.6260  
G01 X-1.2693 Y0.6260  
G01 X-1.2633 Y0.6320  
G01 X-1.2367 Y0.6320  
G01 X-1.2180 Y0.6133  
G01 X-1.2180 Y0.6099  
G01 X-1.1011 Y0.5320  
G01 X-1.0867 Y0.5320  
G01 X-1.0680 Y0.5133  
G01 X-1.0680 Y0.4867  
G01 X-1.0867 Y0.4680  
G01 X-1.1133 Y0.4680  
G01 X-1.1320 Y0.4867  
G01 X-1.1320 Y0.4901  
G01 X-1.2489 Y0.5680  
G01 X-1.2633 Y0.5680  
G01 X-1.2693 Y0.5740  
G01 X-1.5234 Y0.5740  
G01 X-1.5243 Y0.5739  
G01 X-1.5259 Y0.5740  
G01 X-1.5276 Y0.5740  
G01 X-1.5285 Y0.5742  
G01 X-1.5294 Y0.5742  
G01 X-1.5310 Y0.5747  
G01 X-1.5326 Y0.5750  
G01 X-1.5334 Y0.5754  
G01 X-1.5343 Y0.5756  
G01 X-1.5358 Y0.5763  
G01 X-1.5373 Y0.5770  
G01 X-1.5381 Y0.5775  
G01 X-1.5858 Y0.6013  
G01 X-1.5873 Y0.6020  
G01 X-1.5881 Y0.6025  
G01 X-1.5889 Y0.6029  
G01 X-1.5902 Y0.6039  
G01 X-1.5916 Y0.6048  
G01 X-1.5922 Y0.6055  
G01 X-1.5930 Y0.6060  
G01 X-1.5940 Y0.6073  
G01 X-1.7552 Y0.7684  
G01 X-1.7593 Y0.7692  
G01 X-1.7652 Y0.7716  
G01 X-1.7704 Y0.7751  
G01 X-1.7749 Y0.7796  
G01 X-1.7784 Y0.7848  
G01 X-1.7808 Y0.7907  
G01 X-1.7820 Y0.7968  
G01 X-1.7820 Y0.8032  
G01 X-1.7808 Y0.8093  
G01 X-1.7784 Y0.8152  
G01 X-1.7781 Y0.8156  
G01 X-1.7930 Y0.9390  
G01 X-1.8842 Y0.9390  
G01 X-1.8990 Y0.9242  
G01 X-1.8990 Y0.7858  
G01 X-1.7459 Y0.6327  
G01 X-1.6448 Y0.5316  
G01 X-1.6407 Y0.5308  
G01 X-1.6348 Y0.5284  
G01 X-1.6296 Y0.5249  
G01 X-1.6251 Y0.5204  
G01 X-1.6216 Y0.5152  
G01 X-1.6192 Y0.5093  
G01 X-1.6180 Y0.5032  
G01 X-1.6180 Y0.4968  
G01 X-1.6192 Y0.4907  
G01 X-1.6216 Y0.4848  
G01 X-1.6251 Y0.4796  
G01 X-1.6296 Y0.4751  
G01 X-1.6348 Y0.4716  
G01 X-1.6407 Y0.4692  
G01 X-1.6468 Y0.4680  
G01 X-1.6532 Y0.4680  
G01 X-1.6593 Y0.4692  
G01 X-1.6652 Y0.4716  
G01 X-1.6704 Y0.4751  
G01 X-1.6749 Y0.4796  
G01 X-1.6784 Y0.4848  
G01 X-1.6808 Y0.4907  
G01 X-1.6816 Y0.4948  
G01 X-1.7625 Y0.5757  
G01 X-1.8990 Y0.4392  
G01 X-1.8990 Y0.3358  
G01 X-1.8642 Y0.3010  
G01 X-1.8574 Y0.3010  
G01 X-1.8629 Y0.3377  
G01 X-1.8720 Y0.3467  
G01 X-1.8720 Y0.3733  
G01 X-1.8533 Y0.3920  
G01 X-1.8267 Y0.3920  
G01 X-1.8080 Y0.3733  
G01 X-1.8080 Y0.3467  
G01 X-1.8112 Y0.3435  
G01 X-1.8042 Y0.2970  
G01 X-1.5957 Y0.2260  
G01 X-0.8224 Y0.2260  
G01 X-0.8174 Y0.2250  
G01 X-0.8127 Y0.2230  
G01 X-0.8084 Y0.2202  
G01 X-0.8048 Y0.2166  
G01 X-0.8020 Y0.2123  
G01 X-0.8000 Y0.2076  
G01 X-0.7990 Y0.2026  
G01 X-0.7990 Y0.1490  
G01 X-0.7917 Y0.1478  
G01 X-0.7843 Y0.1454  
G01 X-0.7775 Y0.1419  
G01 X-0.7712 Y0.1374  
G01 X-0.7658 Y0.1319  
G01 X-0.7615 Y0.1260  
G01 X-0.1343 Y0.1260  
G01 X-0.0960 Y0.1573  
G01 X-0.0960 Y0.2520  
G01 X-0.1260 Y0.2632  
G01 X-0.1322 Y0.2570  
G01 X-0.1678 Y0.2570  
G01 X-0.1848 Y0.2740  
G01 X-0.2152 Y0.2740  
G01 X-0.2322 Y0.2570  
G01 X-0.2678 Y0.2570  
G01 X-0.2930 Y0.2822  
G01 X-0.2930 Y0.3178  
G01 X-0.2678 Y0.3430  
G01 X-0.2322 Y0.3430  
G01 X-0.2152 Y0.3260  
G01 X-0.1848 Y0.3260  
G01 X-0.1760 Y0.3348  
G01 X-0.1760 Y0.3652  
G01 X-0.1848 Y0.3740  
G01 X-0.2152 Y0.3740  
G01 X-0.2322 Y0.3570  
G01 X-0.2678 Y0.3570  
G01 X-0.2930 Y0.3822  
G01 X-0.2930 Y0.4178  
G01 X-0.2678 Y0.4430  
G01 X-0.2322 Y0.4430  
G01 X-0.2152 Y0.4260  
G01 X-0.1848 Y0.4260  
G01 X-0.1760 Y0.4348  
G01 X-0.1760 Y0.4652  
G01 X-0.1848 Y0.4740  
G01 X-0.2152 Y0.4740  
G01 X-0.2279 Y0.4613  
G01 X-0.2298 Y0.4584  
G01 X-0.2334 Y0.4548  
G01 X-0.2377 Y0.4520  
G01 X-0.2424 Y0.4500  
G01 X-0.2474 Y0.4490  
G01 X-0.4680 Y0.4490  
G01 X-0.4680 Y0.4367  
G01 X-0.4867 Y0.4180  
G01 X-0.5133 Y0.4180  
G01 X-0.5320 Y0.4367  
G01 X-0.5320 Y0.4452  
G01 X-0.5666 Y0.4798  
G01 X-0.5702 Y0.4834  
G01 X-0.5730 Y0.4877  
G01 X-0.5750 Y0.4924  
G01 X-0.5760 Y0.4974  
G01 X-0.5760 Y0.6807  
G01 X-0.5820 Y0.6867  
G01 X-0.5820 Y0.7133  
G01 X-0.5633 Y0.7320  
G01 X-0.5367 Y0.7320  
G01 X-0.5180 Y0.7133  
G01 X-0.5180 Y0.6867  
G01 X-0.5240 Y0.6807  
G01 X-0.5240 Y0.5108  
G01 X-0.5116 Y0.4983  
G01 X-0.5076 Y0.5000  
G01 X-0.5026 Y0.5010  
G01 X-0.2930 Y0.5010  
G01 X-0.2930 Y0.5178  
G01 X-0.2678 Y0.5430  
G01 X-0.2322 Y0.5430  
G01 X-0.2152 Y0.5260  
G01 X-0.1848 Y0.5260  
G01 X-0.1678 Y0.5430  
G01 X-0.1322 Y0.5430  
G01 X-0.1070 Y0.5178  
G01 X-0.1070 Y0.4822  
G01 X-0.1240 Y0.4652  
G01 X-0.1240 Y0.4348  
G01 X-0.1070 Y0.4178  
G01 X-0.1070 Y0.3822  
G01 X-0.1240 Y0.3652  
G01 X-0.1240 Y0.3348  
G01 X-0.1070 Y0.3178  
G01 X-0.1070 Y0.3116  
G01 X-0.0629 Y0.2951  
G01 X-0.0624 Y0.2950  
G01 X-0.0605 Y0.2942  
G01 X-0.0585 Y0.2934  
G01 X-0.0581 Y0.2932  
G01 X-0.0577 Y0.2930  
G01 X-0.0559 Y0.2919  
G01 X-0.0541 Y0.2907  
G01 X-0.0538 Y0.2904  
G01 X-0.0534 Y0.2902  
G01 X-0.0519 Y0.2887  
G01 X-0.0504 Y0.2872  
G01 X-0.0501 Y0.2869  
G01 X-0.0498 Y0.2866  
G01 X-0.0486 Y0.2848  
G01 X-0.0474 Y0.2831  
G01 X-0.0472 Y0.2827  
G01 X-0.0470 Y0.2823  
G01 X-0.0461 Y0.2804  
G01 X-0.0453 Y0.2784  
G01 X-0.0452 Y0.2780  
G01 X-0.0450 Y0.2776  
G01 X-0.0446 Y0.2755  
G01 X-0.0441 Y0.2734  
G01 X-0.0441 Y0.2730  
G01 X-0.0440 Y0.2726  
G01 X-0.0440 Y0.2704  
G01 X-0.0439 Y0.2683  
G01 X-0.0440 Y0.2679  
G01 X-0.0440 Y0.1463  
G01 X-0.0439 Y0.1450  
G01 X-0.0440 Y0.1437  
G01 X-0.0440 Y0.1424  
G01 X-0.0443 Y0.1412  
G01 X-0.0444 Y0.1399  
G01 X-0.0448 Y0.1387  
G01 X-0.0450 Y0.1374  
G01 X-0.0455 Y0.1362  
G01 X-0.0459 Y0.1350  
G01 X-0.0465 Y0.1339  
G01 X-0.0470 Y0.1327  
G01 X-0.0477 Y0.1316  
G01 X-0.0483 Y0.1305  
G01 X-0.0491 Y0.1295  
G01 X-0.0498 Y0.1284  
G01 X-0.0507 Y0.1275  
G01 X-0.0516 Y0.1265  
G00 Z0.0500  
G00 X-0.1070 Y0.1822  
G01 Z-0.0040 F10    
G01 X-0.1322 Y0.1570  F20    
G01 X-0.1678 Y0.1570  
G01 X-0.1930 Y0.1822  
G01 X-0.1930 Y0.1830  
G01 X-0.2070 Y0.1830  
G01 X-0.2070 Y0.1822  
G01 X-0.2322 Y0.1570  
G01 X-0.2678 Y0.1570  
G01 X-0.2930 Y0.1822  
G01 X-0.2930 Y0.1830  
G01 X-0.5022 Y0.1830  
G01 X-0.5066 Y0.1842  
G01 X-0.5104 Y0.1864  
G01 X-0.5136 Y0.1896  
G01 X-0.5158 Y0.1934  
G01 X-0.5170 Y0.1978  
G01 X-0.5170 Y0.3217  
G01 X-0.5283 Y0.3330  
G01 X-0.7217 Y0.3330  
G01 X-0.7367 Y0.3180  
G01 X-0.7633 Y0.3180  
G01 X-0.7820 Y0.3367  
G01 X-0.7820 Y0.3586  
G01 X-1.2622 Y0.3678  
G01 X-1.3069 Y0.3142  
G01 X-1.3083 Y0.3125  
G01 X-1.3102 Y0.3111  
G01 X-1.3119 Y0.3099  
G01 X-1.3141 Y0.3091  
G01 X-1.3527 Y0.2946  
G01 X-1.3534 Y0.2942  
G01 X-1.3548 Y0.2938  
G01 X-1.3561 Y0.2933  
G01 X-1.3570 Y0.2932  
G01 X-1.3578 Y0.2930  
G01 X-1.3592 Y0.2930  
G01 X-1.3606 Y0.2929  
G01 X-1.3614 Y0.2930  
G01 X-1.5041 Y0.2930  
G01 X-1.5054 Y0.2929  
G01 X-1.5063 Y0.2930  
G01 X-1.5072 Y0.2930  
G01 X-1.5085 Y0.2933  
G01 X-1.6008 Y0.3079  
G01 X-1.6012 Y0.3079  
G01 X-1.6030 Y0.3083  
G01 X-1.6049 Y0.3086  
G01 X-1.6052 Y0.3087  
G01 X-1.6056 Y0.3088  
G01 X-1.6073 Y0.3096  
G01 X-1.6090 Y0.3104  
G01 X-1.6093 Y0.3106  
G01 X-1.6556 Y0.3338  
G01 X-1.6576 Y0.3348  
G01 X-1.6596 Y0.3358  
G01 X-1.6613 Y0.3373  
G01 X-1.6630 Y0.3388  
G01 X-1.6642 Y0.3407  
G01 X-1.6654 Y0.3425  
G01 X-1.7230 Y0.4304  
G01 X-1.7229 Y0.4291  
G01 X-1.7230 Y0.4284  
G01 X-1.7230 Y0.3883  
G01 X-1.7080 Y0.3733  
G01 X-1.7080 Y0.3467  
G01 X-1.7267 Y0.3280  
G01 X-1.7533 Y0.3280  
G01 X-1.7720 Y0.3467  
G01 X-1.7720 Y0.3733  
G01 X-1.7570 Y0.3883  
G01 X-1.7570 Y0.4293  
G01 X-1.7601 Y0.4695  
G01 X-1.7652 Y0.4716  
G01 X-1.7704 Y0.4751  
G01 X-1.7749 Y0.4796  
G01 X-1.7784 Y0.4848  
G01 X-1.7808 Y0.4907  
G01 X-1.7820 Y0.4968  
G01 X-1.7820 Y0.5032  
G01 X-1.7808 Y0.5093  
G01 X-1.7784 Y0.5152  
G01 X-1.7749 Y0.5204  
G01 X-1.7704 Y0.5249  
G01 X-1.7652 Y0.5284  
G01 X-1.7593 Y0.5308  
G01 X-1.7532 Y0.5320  
G01 X-1.7468 Y0.5320  
G01 X-1.7407 Y0.5308  
G01 X-1.7348 Y0.5284  
G01 X-1.7296 Y0.5249  
G01 X-1.7251 Y0.5204  
G01 X-1.7216 Y0.5152  
G01 X-1.7192 Y0.5093  
G01 X-1.7180 Y0.5032  
G01 X-1.7180 Y0.4968  
G01 X-1.7192 Y0.4907  
G01 X-1.7202 Y0.4882  
G01 X-1.6383 Y0.3632  
G01 X-1.5948 Y0.3414  
G01 X-1.5037 Y0.3270  
G01 X-1.3631 Y0.3270  
G01 X-1.3302 Y0.3393  
G01 X-1.2839 Y0.3949  
G01 X-1.2834 Y0.3957  
G01 X-1.2825 Y0.3966  
G01 X-1.2816 Y0.3976  
G01 X-1.2809 Y0.3981  
G01 X-1.2802 Y0.3988  
G01 X-1.2790 Y0.3994  
G01 X-1.2780 Y0.4002  
G01 X-1.2771 Y0.4005  
G01 X-1.2763 Y0.4010  
G01 X-1.2750 Y0.4013  
G01 X-1.2738 Y0.4017  
G01 X-1.2728 Y0.4018  
G01 X-1.2719 Y0.4020  
G01 X-1.2706 Y0.4020  
G01 X-1.2693 Y0.4021  
G01 X-1.2684 Y0.4020  
G01 X-0.7498 Y0.3920  
G01 X-0.7478 Y0.3920  
G01 X-0.7476 Y0.3920  
G01 X-0.7474 Y0.3920  
G01 X-0.7454 Y0.3914  
G01 X-0.7434 Y0.3908  
G01 X-0.7433 Y0.3908  
G01 X-0.7431 Y0.3907  
G01 X-0.7414 Y0.3896  
G01 X-0.7396 Y0.3886  
G01 X-0.7394 Y0.3885  
G01 X-0.7393 Y0.3884  
G01 X-0.7379 Y0.3869  
G01 X-0.7364 Y0.3854  
G01 X-0.7363 Y0.3853  
G01 X-0.7362 Y0.3852  
G01 X-0.7352 Y0.3834  
G01 X-0.7342 Y0.3816  
G01 X-0.7341 Y0.3814  
G01 X-0.7340 Y0.3813  
G01 X-0.7335 Y0.3792  
G01 X-0.7334 Y0.3786  
G01 X-0.7217 Y0.3670  
G01 X-0.5283 Y0.3670  
G01 X-0.5133 Y0.3820  
G01 X-0.4867 Y0.3820  
G01 X-0.4680 Y0.3633  
G01 X-0.4680 Y0.3367  
G01 X-0.4830 Y0.3217  
G01 X-0.4830 Y0.2170  
G01 X-0.2930 Y0.2170  
G01 X-0.2930 Y0.2178  
G01 X-0.2678 Y0.2430  
G01 X-0.2322 Y0.2430  
G01 X-0.2070 Y0.2178  
G01 X-0.2070 Y0.2170  
G01 X-0.1930 Y0.2170  
G01 X-0.1930 Y0.2178  
G01 X-0.1678 Y0.2430  
G01 X-0.1322 Y0.2430  
G01 X-0.1070 Y0.2178  
G01 X-0.1070 Y0.1822  
G00 Z0.0500  
G00 X-0.1070 Y0.5822  
G01 Z-0.0040 F10    
G01 X-0.1322 Y0.5570  F20    
G01 X-0.1678 Y0.5570  
G01 X-0.1848 Y0.5740  
G01 X-0.2152 Y0.5740  
G01 X-0.2322 Y0.5570  
G01 X-0.2678 Y0.5570  
G01 X-0.2848 Y0.5740  
G01 X-0.4526 Y0.5740  
G01 X-0.4576 Y0.5750  
G01 X-0.4623 Y0.5770  
G01 X-0.4666 Y0.5798  
G01 X-0.4702 Y0.5834  
G01 X-0.4730 Y0.5877  
G01 X-0.4750 Y0.5924  
G01 X-0.4760 Y0.5974  
G01 X-0.4760 Y0.8372  
G01 X-0.5180 Y0.7952  
G01 X-0.5180 Y0.7867  
G01 X-0.5367 Y0.7680  
G01 X-0.5452 Y0.7680  
G01 X-0.5990 Y0.7142  
G01 X-0.5990 Y0.4724  
G01 X-0.6000 Y0.4674  
G01 X-0.6020 Y0.4627  
G01 X-0.6048 Y0.4584  
G01 X-0.6084 Y0.4548  
G01 X-0.6127 Y0.4520  
G01 X-0.6174 Y0.4500  
G01 X-0.6224 Y0.4490  
G01 X-0.9776 Y0.4490  
G01 X-0.9826 Y0.4500  
G01 X-0.9873 Y0.4520  
G01 X-0.9916 Y0.4548  
G01 X-0.9952 Y0.4584  
G01 X-1.1925 Y0.6558  
G01 X-1.2144 Y0.6740  
G01 X-1.2307 Y0.6740  
G01 X-1.2367 Y0.6680  
G01 X-1.2633 Y0.6680  
G01 X-1.2811 Y0.6858  
G01 X-1.4099 Y0.7459  
G01 X-1.4112 Y0.7464  
G01 X-1.4122 Y0.7470  
G01 X-1.4133 Y0.7475  
G01 X-1.4144 Y0.7483  
G01 X-1.4472 Y0.7680  
G01 X-1.4532 Y0.7680  
G01 X-1.4593 Y0.7692  
G01 X-1.4652 Y0.7716  
G01 X-1.4704 Y0.7751  
G01 X-1.4749 Y0.7796  
G01 X-1.4784 Y0.7848  
G01 X-1.4808 Y0.7907  
G01 X-1.4820 Y0.7968  
G01 X-1.4820 Y0.8032  
G01 X-1.4808 Y0.8093  
G01 X-1.4784 Y0.8152  
G01 X-1.4749 Y0.8204  
G01 X-1.4704 Y0.8249  
G01 X-1.4652 Y0.8284  
G01 X-1.4593 Y0.8308  
G01 X-1.4532 Y0.8320  
G01 X-1.4468 Y0.8320  
G01 X-1.4407 Y0.8308  
G01 X-1.4348 Y0.8284  
G01 X-1.4296 Y0.8249  
G01 X-1.4251 Y0.8204  
G01 X-1.4216 Y0.8152  
G01 X-1.4206 Y0.8127  
G01 X-1.3878 Y0.7930  
G01 X-1.2571 Y0.7320  
G01 X-1.2367 Y0.7320  
G01 X-1.2307 Y0.7260  
G01 X-1.2062 Y0.7260  
G01 X-1.2048 Y0.7261  
G01 X-1.2036 Y0.7260  
G01 X-1.2024 Y0.7260  
G01 X-1.2011 Y0.7257  
G01 X-1.1997 Y0.7256  
G01 X-1.1986 Y0.7252  
G01 X-1.1974 Y0.7250  
G01 X-1.1961 Y0.7245  
G01 X-1.1948 Y0.7241  
G01 X-1.1938 Y0.7235  
G01 X-1.1927 Y0.7230  
G01 X-1.1915 Y0.7223  
G01 X-1.1903 Y0.7216  
G01 X-1.1894 Y0.7209  
G01 X-1.1884 Y0.7202  
G01 X-1.1875 Y0.7192  
G01 X-1.1594 Y0.6959  
G01 X-1.1584 Y0.6952  
G01 X-1.1574 Y0.6942  
G01 X-1.1564 Y0.6933  
G01 X-1.1556 Y0.6924  
G01 X-0.9642 Y0.5010  
G01 X-0.6510 Y0.5010  
G01 X-0.6510 Y0.7276  
G01 X-0.6500 Y0.7326  
G01 X-0.6480 Y0.7373  
G01 X-0.6452 Y0.7416  
G01 X-0.5820 Y0.8048  
G01 X-0.5820 Y0.8133  
G01 X-0.5633 Y0.8320  
G01 X-0.5548 Y0.8320  
G01 X-0.4827 Y0.9041  
G01 X-0.4791 Y0.9077  
G01 X-0.4760 Y0.9108  
G01 X-0.4760 Y0.9807  
G01 X-0.4820 Y0.9867  
G01 X-0.4820 Y1.0133  
G01 X-0.4633 Y1.0320  
G01 X-0.4367 Y1.0320  
G01 X-0.4180 Y1.0133  
G01 X-0.4180 Y0.9867  
G01 X-0.4240 Y0.9807  
G01 X-0.4240 Y0.8974  
G01 X-0.4250 Y0.8924  
G01 X-0.4270 Y0.8877  
G01 X-0.4271 Y0.8875  
G01 X-0.4270 Y0.8873  
G01 X-0.4250 Y0.8826  
G01 X-0.4240 Y0.8776  
G01 X-0.4240 Y0.6260  
G01 X-0.2848 Y0.6260  
G01 X-0.2678 Y0.6430  
G01 X-0.2322 Y0.6430  
G01 X-0.2152 Y0.6260  
G01 X-0.1848 Y0.6260  
G01 X-0.1678 Y0.6430  
G01 X-0.1322 Y0.6430  
G01 X-0.1070 Y0.6178  
G01 X-0.1070 Y0.5822  
G00 Z0.0500  
G00 X-0.1070 Y0.6822  
G01 Z-0.0040 F10    
G01 X-0.1322 Y0.6570  F20    
G01 X-0.1678 Y0.6570  
G01 X-0.1930 Y0.6822  
G01 X-0.1930 Y0.6830  
G01 X-0.2070 Y0.6830  
G01 X-0.2070 Y0.6822  
G01 X-0.2322 Y0.6570  
G01 X-0.2678 Y0.6570  
G01 X-0.2930 Y0.6822  
G01 X-0.2930 Y0.7178  
G01 X-0.2678 Y0.7430  
G01 X-0.2322 Y0.7430  
G01 X-0.2070 Y0.7178  
G01 X-0.2070 Y0.7170  
G01 X-0.1930 Y0.7170  
G01 X-0.1930 Y0.7178  
G01 X-0.1678 Y0.7430  
G01 X-0.1322 Y0.7430  
G01 X-0.1070 Y0.7178  
G01 X-0.1070 Y0.6822  
G00 Z0.0500  
G00 X-0.1070 Y0.7822  
G01 Z-0.0040 F10    
G01 X-0.1322 Y0.7570  F20    
G01 X-0.1678 Y0.7570  
G01 X-0.1930 Y0.7822  
G01 X-0.1930 Y0.8178  
G01 X-0.1678 Y0.8430  
G01 X-0.1322 Y0.8430  
G01 X-0.1070 Y0.8178  
G01 X-0.1070 Y0.7822  
G00 Z0.0500  
G00 X-0.2070 Y0.7822  
G01 Z-0.0040 F10    
G01 X-0.2322 Y0.7570  F20    
G01 X-0.2678 Y0.7570  
G01 X-0.2930 Y0.7822  
G01 X-0.2930 Y0.8178  
G01 X-0.2678 Y0.8430  
G01 X-0.2322 Y0.8430  
G01 X-0.2070 Y0.8178  
G01 X-0.2070 Y0.7822  
G00 Z0.0500  
G00 X-0.2070 Y0.8822  
G01 Z-0.0040 F10    
G01 X-0.2322 Y0.8570  F20    
G01 X-0.2678 Y0.8570  
G01 X-0.2930 Y0.8822  
G01 X-0.2930 Y0.9178  
G01 X-0.2678 Y0.9430  
G01 X-0.2322 Y0.9430  
G01 X-0.2070 Y0.9178  
G01 X-0.2070 Y0.8822  
G00 Z0.0500  
G00 X-0.1930 Y0.8822  
G01 Z-0.0040 F10    
G01 X-0.1930 Y0.9178  F20    
G01 X-0.1678 Y0.9430  
G01 X-0.1322 Y0.9430  
G01 X-0.1070 Y0.9178  
G01 X-0.1070 Y0.8822  
G01 X-0.1322 Y0.8570  
G01 X-0.1678 Y0.8570  
G01 X-0.1930 Y0.8822  
G00 Z0.0500  
G00 X-0.6364 Y0.9396  
G01 Z-0.0040 F10    
G01 X-0.6396 Y0.9364  F20    
G01 X-0.6434 Y0.9342  
G01 X-0.6478 Y0.9330  
G01 X-0.7717 Y0.9330  
G01 X-0.7867 Y0.9180  
G01 X-0.8133 Y0.9180  
G01 X-0.8320 Y0.9367  
G01 X-0.8320 Y0.9633  
G01 X-0.8133 Y0.9820  
G01 X-0.7867 Y0.9820  
G01 X-0.7717 Y0.9670  
G01 X-0.6670 Y0.9670  
G01 X-0.6670 Y0.9717  
G01 X-0.6820 Y0.9867  
G01 X-0.6820 Y1.0133  
G01 X-0.6633 Y1.0320  
G01 X-0.6367 Y1.0320  
G01 X-0.6180 Y1.0133  
G01 X-0.6180 Y0.9867  
G01 X-0.6330 Y0.9717  
G01 X-0.6330 Y0.9478  
G01 X-0.6342 Y0.9434  
G01 X-0.6364 Y0.9396  
G00 Z0.0500  
G00 X-0.8370 Y0.9112  
G01 Z-0.0040 F10    
G01 X-0.8367 Y0.9108  F20    
G01 X-0.8364 Y0.9104  
G01 X-0.8355 Y0.9089  
G01 X-0.8346 Y0.9075  
G01 X-0.8344 Y0.9070  
G01 X-0.8342 Y0.9066  
G01 X-0.8337 Y0.9049  
G01 X-0.8332 Y0.9032  
G01 X-0.8331 Y0.9027  
G01 X-0.8330 Y0.9022  
G01 X-0.8330 Y0.9005  
G01 X-0.8231 Y0.7272  
G01 X-0.8141 Y0.6820  
G01 X-0.8117 Y0.6820  
G01 X-0.7930 Y0.6633  
G01 X-0.7930 Y0.6367  
G01 X-0.8117 Y0.6180  
G01 X-0.8383 Y0.6180  
G01 X-0.8570 Y0.6367  
G01 X-0.8570 Y0.6633  
G01 X-0.8470 Y0.6733  
G01 X-0.8565 Y0.7207  
G01 X-0.8568 Y0.7218  
G01 X-0.8569 Y0.7228  
G01 X-0.8571 Y0.7239  
G01 X-0.8570 Y0.7251  
G01 X-0.8666 Y0.8926  
G01 X-0.8920 Y0.9180  
G01 X-0.9133 Y0.9180  
G01 X-0.9320 Y0.9367  
G01 X-0.9320 Y0.9633  
G01 X-0.9278 Y0.9675  
G01 X-0.9505 Y1.0130  
G01 X-1.9087 Y1.0130  
G01 X-1.9730 Y0.9572  
G01 X-1.9730 Y0.0713  
G01 X-1.2447 Y0.0420  
G01 X-1.1502 Y0.0420  
G01 X-1.0476 Y0.1120  
G01 X-1.0454 Y0.1188  
G01 X-1.0419 Y0.1257  
G01 X-1.0374 Y0.1319  
G01 X-1.0319 Y0.1374  
G01 X-1.0257 Y0.1419  
G01 X-1.0188 Y0.1454  
G01 X-1.0115 Y0.1478  
G01 X-1.0039 Y0.1490  
G01 X-0.9961 Y0.1490  
G01 X-0.9885 Y0.1478  
G01 X-0.9812 Y0.1454  
G01 X-0.9743 Y0.1419  
G01 X-0.9681 Y0.1374  
G01 X-0.9626 Y0.1319  
G01 X-0.9581 Y0.1257  
G01 X-0.9546 Y0.1188  
G01 X-0.9522 Y0.1115  
G01 X-0.9510 Y0.1039  
G01 X-0.9510 Y0.0961  
G01 X-0.9522 Y0.0885  
G01 X-0.9546 Y0.0812  
G01 X-0.9581 Y0.0743  
G01 X-0.9626 Y0.0681  
G01 X-0.9681 Y0.0626  
G01 X-0.9743 Y0.0581  
G01 X-0.9812 Y0.0546  
G01 X-0.9885 Y0.0522  
G01 X-0.9961 Y0.0510  
G01 X-1.0039 Y0.0510  
G01 X-1.0115 Y0.0522  
G01 X-1.0188 Y0.0546  
G01 X-1.0257 Y0.0581  
G01 X-1.0319 Y0.0626  
G01 X-1.0374 Y0.0681  
G01 X-1.0419 Y0.0743  
G01 X-1.0421 Y0.0746  
G01 X-1.1341 Y0.0119  
G01 X-1.1346 Y0.0114  
G01 X-1.1359 Y0.0106  
G01 X-1.1373 Y0.0097  
G01 X-1.1379 Y0.0095  
G01 X-1.1384 Y0.0092  
G01 X-1.1400 Y0.0087  
G01 X-1.1415 Y0.0082  
G01 X-1.1421 Y0.0082  
G01 X-1.1428 Y0.0080  
G01 X-1.1444 Y0.0080  
G01 X-1.1460 Y0.0079  
G01 X-1.1466 Y0.0080  
G01 X-1.2431 Y0.0080  
G01 X-1.2434 Y0.0079  
G01 X-1.2453 Y0.0080  
G01 X-1.2472 Y0.0080  
G01 X-1.2476 Y0.0081  
G01 X-1.9903 Y0.0380  
G01 X-1.9922 Y0.0380  
G01 X-1.9926 Y0.0381  
G01 X-1.9929 Y0.0381  
G01 X-1.9947 Y0.0387  
G01 X-1.9966 Y0.0392  
G01 X-1.9969 Y0.0393  
G01 X-1.9972 Y0.0394  
G01 X-1.9988 Y0.0404  
G01 X-2.0004 Y0.0414  
G01 X-2.0007 Y0.0416  
G01 X-2.0010 Y0.0418  
G01 X-2.0023 Y0.0432  
G01 X-2.0036 Y0.0446  
G01 X-2.0038 Y0.0449  
G01 X-2.0040 Y0.0451  
G01 X-2.0049 Y0.0468  
G01 X-2.0058 Y0.0484  
G01 X-2.0059 Y0.0488  
G01 X-2.0061 Y0.0491  
G01 X-2.0065 Y0.0509  
G01 X-2.0070 Y0.0528  
G01 X-2.0070 Y0.0531  
G01 X-2.0071 Y0.0534  
G01 X-2.0070 Y0.0553  
G01 X-2.0070 Y0.9634  
G01 X-2.0071 Y0.9640  
G01 X-2.0070 Y0.9656  
G01 X-2.0070 Y0.9672  
G01 X-2.0068 Y0.9678  
G01 X-2.0068 Y0.9684  
G01 X-2.0063 Y0.9700  
G01 X-2.0058 Y0.9716  
G01 X-2.0055 Y0.9721  
G01 X-2.0053 Y0.9727  
G01 X-2.0044 Y0.9740  
G01 X-2.0036 Y0.9754  
G01 X-2.0032 Y0.9759  
G01 X-2.0028 Y0.9764  
G01 X-2.0016 Y0.9774  
G01 X-2.0004 Y0.9786  
G01 X-1.9999 Y0.9789  
G01 X-1.9266 Y1.0424  
G01 X-1.9254 Y1.0436  
G01 X-1.9249 Y1.0439  
G01 X-1.9244 Y1.0443  
G01 X-1.9230 Y1.0450  
G01 X-1.9216 Y1.0458  
G01 X-1.9210 Y1.0460  
G01 X-1.9204 Y1.0463  
G01 X-1.9188 Y1.0466  
G01 X-1.9172 Y1.0470  
G01 X-1.9166 Y1.0470  
G01 X-1.9160 Y1.0471  
G01 X-1.9144 Y1.0470  
G01 X-0.9417 Y1.0470  
G01 X-0.9412 Y1.0471  
G01 X-0.9395 Y1.0470  
G01 X-0.9378 Y1.0470  
G01 X-0.9373 Y1.0469  
G01 X-0.9367 Y1.0468  
G01 X-0.9351 Y1.0463  
G01 X-0.9334 Y1.0458  
G01 X-0.9330 Y1.0456  
G01 X-0.9325 Y1.0454  
G01 X-0.9311 Y1.0445  
G01 X-0.9296 Y1.0436  
G01 X-0.9292 Y1.0432  
G01 X-0.9288 Y1.0430  
G01 X-0.9276 Y1.0417  
G01 X-0.9264 Y1.0404  
G01 X-0.9261 Y1.0400  
G01 X-0.9258 Y1.0396  
G01 X-0.9250 Y1.0381  
G01 X-0.9242 Y1.0366  
G01 X-0.9240 Y1.0361  
G01 X-0.8970 Y0.9820  
G01 X-0.8867 Y0.9820  
G01 X-0.8680 Y0.9633  
G01 X-0.8680 Y0.9420  
G01 X-0.8383 Y0.9124  
G01 X-0.8370 Y0.9112  
G00 Z0.0500  
G00 X-0.9680 Y0.9367  
G01 Z-0.0040 F10    
G01 X-0.9801 Y0.9247  F20    
G01 X-0.9735 Y0.8653  
G01 X-0.8985 Y0.7320  
G01 X-0.8867 Y0.7320  
G01 X-0.8680 Y0.7133  
G01 X-0.8680 Y0.6867  
G01 X-0.8867 Y0.6680  
G01 X-0.9133 Y0.6680  
G01 X-0.9320 Y0.6867  
G01 X-0.9320 Y0.7133  
G01 X-0.9288 Y0.7165  
G01 X-1.0043 Y0.8508  
G01 X-1.0050 Y0.8517  
G01 X-1.0054 Y0.8527  
G01 X-1.0059 Y0.8536  
G01 X-1.0062 Y0.8548  
G01 X-1.0066 Y0.8559  
G01 X-1.0068 Y0.8569  
G01 X-1.0070 Y0.8580  
G01 X-1.0070 Y0.8592  
G01 X-1.0136 Y0.9183  
G01 X-1.0320 Y0.9367  
G01 X-1.0320 Y0.9405  
G01 X-1.0421 Y0.9430  
G01 X-1.5813 Y0.9430  
G01 X-1.6090 Y0.9042  
G01 X-1.6080 Y0.9033  
G01 X-1.6080 Y0.8767  
G01 X-1.6264 Y0.8583  
G01 X-1.6301 Y0.8252  
G01 X-1.6296 Y0.8249  
G01 X-1.6251 Y0.8204  
G01 X-1.6216 Y0.8152  
G01 X-1.6192 Y0.8093  
G01 X-1.6180 Y0.8032  
G01 X-1.6180 Y0.7968  
G01 X-1.6192 Y0.7907  
G01 X-1.6216 Y0.7848  
G01 X-1.6251 Y0.7796  
G01 X-1.6296 Y0.7751  
G01 X-1.6348 Y0.7716  
G01 X-1.6407 Y0.7692  
G01 X-1.6468 Y0.7680  
G01 X-1.6532 Y0.7680  
G01 X-1.6593 Y0.7692  
G01 X-1.6652 Y0.7716  
G01 X-1.6704 Y0.7751  
G01 X-1.6749 Y0.7796  
G01 X-1.6784 Y0.7848  
G01 X-1.6808 Y0.7907  
G01 X-1.6820 Y0.7968  
G01 X-1.6820 Y0.8032  
G01 X-1.6808 Y0.8093  
G01 X-1.6784 Y0.8152  
G01 X-1.6749 Y0.8204  
G01 X-1.6704 Y0.8249  
G01 X-1.6652 Y0.8284  
G01 X-1.6639 Y0.8289  
G01 X-1.6599 Y0.8647  
G01 X-1.6720 Y0.8767  
G01 X-1.6720 Y0.9033  
G01 X-1.6533 Y0.9220  
G01 X-1.6380 Y0.9220  
G01 X-1.6043 Y0.9692  
G01 X-1.6036 Y0.9704  
G01 X-1.6030 Y0.9710  
G01 X-1.6025 Y0.9717  
G01 X-1.6014 Y0.9726  
G01 X-1.6004 Y0.9736  
G01 X-1.5997 Y0.9740  
G01 X-1.5991 Y0.9745  
G01 X-1.5978 Y0.9751  
G01 X-1.5966 Y0.9758  
G01 X-1.5958 Y0.9761  
G01 X-1.5950 Y0.9764  
G01 X-1.5936 Y0.9766  
G01 X-1.5922 Y0.9770  
G01 X-1.5914 Y0.9770  
G01 X-1.5906 Y0.9771  
G01 X-1.5892 Y0.9770  
G01 X-1.0401 Y0.9770  
G01 X-1.0380 Y0.9770  
G01 X-1.0379 Y0.9770  
G01 X-1.0378 Y0.9770  
G01 X-1.0357 Y0.9765  
G01 X-1.0222 Y0.9731  
G01 X-1.0133 Y0.9820  
G01 X-0.9867 Y0.9820  
G01 X-0.9680 Y0.9633  
G01 X-0.9680 Y0.9367  
G00 Z0.0500  
G00 X-1.0999 Y0.9085  
G01 Z-0.0040 F10    
G01 X-1.0715 Y0.8801  F20    
G01 X-1.0715 Y0.8399  
G01 X-1.0977 Y0.8137  
G01 X-1.0931 Y0.7721  
G01 X-1.0874 Y0.7320  
G01 X-1.0867 Y0.7320  
G01 X-1.0680 Y0.7133  
G01 X-1.0680 Y0.6867  
G01 X-1.0867 Y0.6680  
G01 X-1.1133 Y0.6680  
G01 X-1.1320 Y0.6867  
G01 X-1.1320 Y0.7133  
G01 X-1.1207 Y0.7246  
G01 X-1.1266 Y0.7656  
G01 X-1.1266 Y0.7659  
G01 X-1.1269 Y0.7679  
G01 X-1.1271 Y0.7698  
G01 X-1.1271 Y0.7701  
G01 X-1.1317 Y0.8115  
G01 X-1.1401 Y0.8115  
G01 X-1.1685 Y0.8399  
G01 X-1.1685 Y0.8483  
G01 X-1.2117 Y0.8531  
G01 X-1.2942 Y0.8606  
G01 X-1.3067 Y0.8480  
G01 X-1.3333 Y0.8480  
G01 X-1.3520 Y0.8667  
G01 X-1.3520 Y0.8933  
G01 X-1.3333 Y0.9120  
G01 X-1.3067 Y0.9120  
G01 X-1.2890 Y0.8943  
G01 X-1.2105 Y0.8871  
G01 X-1.2103 Y0.8871  
G01 X-1.2083 Y0.8869  
G01 X-1.2062 Y0.8867  
G01 X-1.2061 Y0.8867  
G01 X-1.1663 Y0.8823  
G01 X-1.1401 Y0.9085  
G01 X-1.0999 Y0.9085  
G00 Z0.0500  
G00 X-1.4880 Y0.8933  
G01 Z-0.0040 F10    
G01 X-1.4880 Y0.8667  F20    
G01 X-1.5067 Y0.8480  
G01 X-1.5070 Y0.8480  
G01 X-1.5227 Y0.8167  
G01 X-1.5216 Y0.8152  
G01 X-1.5192 Y0.8093  
G01 X-1.5180 Y0.8032  
G01 X-1.5180 Y0.7968  
G01 X-1.5192 Y0.7907  
G01 X-1.5216 Y0.7848  
G01 X-1.5251 Y0.7796  
G01 X-1.5296 Y0.7751  
G01 X-1.5348 Y0.7716  
G01 X-1.5407 Y0.7692  
G01 X-1.5468 Y0.7680  
G01 X-1.5532 Y0.7680  
G01 X-1.5593 Y0.7692  
G01 X-1.5652 Y0.7716  
G01 X-1.5704 Y0.7751  
G01 X-1.5749 Y0.7796  
G01 X-1.5784 Y0.7848  
G01 X-1.5808 Y0.7907  
G01 X-1.5820 Y0.7968  
G01 X-1.5820 Y0.8032  
G01 X-1.5808 Y0.8093  
G01 X-1.5784 Y0.8152  
G01 X-1.5749 Y0.8204  
G01 X-1.5704 Y0.8249  
G01 X-1.5652 Y0.8284  
G01 X-1.5593 Y0.8308  
G01 X-1.5532 Y0.8320  
G01 X-1.5530 Y0.8320  
G01 X-1.5411 Y0.8558  
G01 X-1.5520 Y0.8667  
G01 X-1.5520 Y0.8933  
G01 X-1.5333 Y0.9120  
G01 X-1.5067 Y0.9120  
G01 X-1.4880 Y0.8933  
G00 Z0.0500  
G00 X-1.8080 Y0.9033  
G01 Z-0.0040 F10    
G01 X-1.8080 Y0.8767  F20    
G01 X-1.8152 Y0.8695  
G01 X-1.8085 Y0.7826  
G01 X-1.5572 Y0.5312  
G01 X-1.5532 Y0.5320  
G01 X-1.5468 Y0.5320  
G01 X-1.5407 Y0.5308  
G01 X-1.5348 Y0.5284  
G01 X-1.5296 Y0.5249  
G01 X-1.5251 Y0.5204  
G01 X-1.5216 Y0.5152  
G01 X-1.5192 Y0.5093  
G01 X-1.5180 Y0.5032  
G01 X-1.5180 Y0.4968  
G01 X-1.5192 Y0.4907  
G01 X-1.5216 Y0.4848  
G01 X-1.5251 Y0.4796  
G01 X-1.5296 Y0.4751  
G01 X-1.5330 Y0.4729  
G01 X-1.5330 Y0.4283  
G01 X-1.5180 Y0.4133  
G01 X-1.5180 Y0.3867  
G01 X-1.5367 Y0.3680  
G01 X-1.5633 Y0.3680  
G01 X-1.5820 Y0.3867  
G01 X-1.5820 Y0.4133  
G01 X-1.5670 Y0.4283  
G01 X-1.5670 Y0.4729  
G01 X-1.5704 Y0.4751  
G01 X-1.5749 Y0.4796  
G01 X-1.5784 Y0.4848  
G01 X-1.5808 Y0.4907  
G01 X-1.5820 Y0.4968  
G01 X-1.5820 Y0.5032  
G01 X-1.5812 Y0.5072  
G01 X-1.8366 Y0.7625  
G01 X-1.8378 Y0.7635  
G01 X-1.8381 Y0.7641  
G01 X-1.8386 Y0.7646  
G01 X-1.8394 Y0.7659  
G01 X-1.8403 Y0.7672  
G01 X-1.8405 Y0.7679  
G01 X-1.8408 Y0.7684  
G01 X-1.8413 Y0.7700  
G01 X-1.8418 Y0.7715  
G01 X-1.8418 Y0.7721  
G01 X-1.8420 Y0.7728  
G01 X-1.8420 Y0.7743  
G01 X-1.8484 Y0.8580  
G01 X-1.8533 Y0.8580  
G01 X-1.8720 Y0.8767  
G01 X-1.8720 Y0.9033  
G01 X-1.8533 Y0.9220  
G01 X-1.8367 Y0.9220  
G01 X-1.8362 Y0.9221  
G01 X-1.8351 Y0.9220  
G01 X-1.8341 Y0.9221  
G01 X-1.8334 Y0.9220  
G01 X-1.8267 Y0.9220  
G01 X-1.8080 Y0.9033  
G00 Z0.0500  
G00 X-1.4749 Y0.5204  
G01 Z-0.0040 F10    
G01 X-1.4704 Y0.5249  F20    
G01 X-1.4652 Y0.5284  
G01 X-1.4593 Y0.5308  
G01 X-1.4532 Y0.5320  
G01 X-1.4468 Y0.5320  
G01 X-1.4407 Y0.5308  
G01 X-1.4348 Y0.5284  
G01 X-1.4296 Y0.5249  
G01 X-1.4251 Y0.5204  
G01 X-1.4229 Y0.5170  
G01 X-1.4017 Y0.5170  
G01 X-1.4012 Y0.5171  
G01 X-1.3995 Y0.5170  
G01 X-1.2783 Y0.5170  
G01 X-1.2633 Y0.5320  
G01 X-1.2367 Y0.5320  
G01 X-1.2180 Y0.5133  
G01 X-1.2180 Y0.4867  
G01 X-1.2367 Y0.4680  
G01 X-1.2633 Y0.4680  
G01 X-1.2783 Y0.4830  
G01 X-1.3725 Y0.4830  
G01 X-1.3470 Y0.4320  
G01 X-1.3367 Y0.4320  
G01 X-1.3180 Y0.4133  
G01 X-1.3180 Y0.3867  
G01 X-1.3367 Y0.3680  
G01 X-1.3633 Y0.3680  
G01 X-1.3820 Y0.3867  
G01 X-1.3820 Y0.4133  
G01 X-1.3778 Y0.4175  
G01 X-1.4105 Y0.4830  
G01 X-1.4229 Y0.4830  
G01 X-1.4251 Y0.4796  
G01 X-1.4296 Y0.4751  
G01 X-1.4348 Y0.4716  
G01 X-1.4407 Y0.4692  
G01 X-1.4468 Y0.4680  
G01 X-1.4532 Y0.4680  
G01 X-1.4593 Y0.4692  
G01 X-1.4652 Y0.4716  
G01 X-1.4704 Y0.4751  
G01 X-1.4749 Y0.4796  
G01 X-1.4784 Y0.4848  
G01 X-1.4808 Y0.4907  
G01 X-1.4820 Y0.4968  
G01 X-1.4820 Y0.5032  
G01 X-1.4808 Y0.5093  
G01 X-1.4784 Y0.5152  
G01 X-1.4749 Y0.5204  
G00 Z0.0500  
G00 X-1.2820 Y0.3133  
G01 Z-0.0040 F10    
G01 X-1.2633 Y0.3320  F20    
G01 X-1.2367 Y0.3320  
G01 X-1.2217 Y0.3170  
G01 X-1.1485 Y0.3170  
G01 X-1.1485 Y0.3201  
G01 X-1.1201 Y0.3485  
G01 X-1.0799 Y0.3485  
G01 X-1.0515 Y0.3201  
G01 X-1.0515 Y0.2799  
G01 X-1.0799 Y0.2515  
G01 X-1.1201 Y0.2515  
G01 X-1.1485 Y0.2799  
G01 X-1.1485 Y0.2830  
G01 X-1.2217 Y0.2830  
G01 X-1.2367 Y0.2680  
G01 X-1.2633 Y0.2680  
G01 X-1.2820 Y0.2867  
G01 X-1.2820 Y0.3133  
G00 Z0.0500  
G00 X-1.2342 Y0.1319  
G01 Z-0.0040 F10    
G01 X-1.2288 Y0.1374  F20    
G01 X-1.2225 Y0.1419  
G01 X-1.2157 Y0.1454  
G01 X-1.2083 Y0.1478  
G01 X-1.2007 Y0.1490  
G01 X-1.1930 Y0.1490  
G01 X-1.1854 Y0.1478  
G01 X-1.1780 Y0.1454  
G01 X-1.1712 Y0.1419  
G01 X-1.1649 Y0.1374  
G01 X-1.1595 Y0.1319  
G01 X-1.1549 Y0.1257  
G01 X-1.1514 Y0.1188  
G01 X-1.1491 Y0.1115  
G01 X-1.1479 Y0.1039  
G01 X-1.1479 Y0.0961  
G01 X-1.1491 Y0.0885  
G01 X-1.1514 Y0.0812  
G01 X-1.1549 Y0.0743  
G01 X-1.1595 Y0.0681  
G01 X-1.1649 Y0.0626  
G01 X-1.1712 Y0.0581  
G01 X-1.1780 Y0.0546  
G01 X-1.1854 Y0.0522  
G01 X-1.1930 Y0.0510  
G01 X-1.2007 Y0.0510  
G01 X-1.2083 Y0.0522  
G01 X-1.2157 Y0.0546  
G01 X-1.2225 Y0.0581  
G01 X-1.2288 Y0.0626  
G01 X-1.2342 Y0.0681  
G01 X-1.2388 Y0.0743  
G01 X-1.2423 Y0.0812  
G01 X-1.2439 Y0.0864  
G01 X-1.7019 Y0.1195  
G01 X-1.7299 Y0.0915  
G01 X-1.7701 Y0.0915  
G01 X-1.7985 Y0.1199  
G01 X-1.7985 Y0.1601  
G01 X-1.7701 Y0.1885  
G01 X-1.7299 Y0.1885  
G01 X-1.7015 Y0.1601  
G01 X-1.7015 Y0.1535  
G01 X-1.2415 Y0.1203  
G01 X-1.2388 Y0.1257  
G01 X-1.2342 Y0.1319  
G00 Z0.0500  
G00 X-0.9133 Y0.5680  
G01 Z-0.0040 F10    
G01 X-0.9320 Y0.5867  F20    
G01 X-0.9320 Y0.6133  
G01 X-0.9133 Y0.6320  
G01 X-0.8867 Y0.6320  
G01 X-0.8680 Y0.6133  
G01 X-0.8680 Y0.5972  
G01 X-0.8530 Y0.5860  
G01 X-0.7737 Y0.5716  
G01 X-0.7633 Y0.5820  
G01 X-0.7367 Y0.5820  
G01 X-0.7180 Y0.5633  
G01 X-0.7180 Y0.5367  
G01 X-0.7367 Y0.5180  
G01 X-0.7633 Y0.5180  
G01 X-0.7820 Y0.5367  
G01 X-0.7820 Y0.5385  
G01 X-0.8625 Y0.5532  
G01 X-0.8643 Y0.5534  
G01 X-0.8647 Y0.5536  
G01 X-0.8652 Y0.5537  
G01 X-0.8668 Y0.5544  
G01 X-0.8684 Y0.5551  
G01 X-0.8688 Y0.5554  
G01 X-0.8693 Y0.5556  
G01 X-0.8706 Y0.5567  
G01 X-0.8863 Y0.5685  
G01 X-0.8867 Y0.5680  
G01 X-0.9133 Y0.5680  
G00 Z0.0500  
G00 X-0.0508 Y0.1258  
G01 Z-0.0040 F10    
G01 X-0.0519 Y0.1250  F20    
G01 X-0.0528 Y0.1240  
G01 X-0.0539 Y0.1233  
G01 X-0.1069 Y0.0800  
G01 X-0.1078 Y0.0790  
G01 X-0.1089 Y0.0783  
G01 X-0.1100 Y0.0774  
G01 X-0.1111 Y0.0768  
G01 X-0.1122 Y0.0761  
G01 X-0.1135 Y0.0756  
G01 X-0.1147 Y0.0749  
G01 X-0.1159 Y0.0745  
G01 X-0.1171 Y0.0740  
G01 X-0.1185 Y0.0738  
G01 X-0.1197 Y0.0734  
G01 X-0.1211 Y0.0733  
G01 X-0.1223 Y0.0730  
G01 X-0.1237 Y0.0730  
G01 X-0.1250 Y0.0729  
G01 X-0.1263 Y0.0730  
G01 X-0.7610 Y0.0730  
G01 X-0.7650 Y0.0674  
G01 X-0.7706 Y0.0619  
G01 X-0.7769 Y0.0572  
G01 X-0.7840 Y0.0537  
G01 X-0.7914 Y0.0512  
G01 X-0.7992 Y0.0500  
G01 X-0.8071 Y0.0500  
G01 X-0.8149 Y0.0512  
G01 X-0.8223 Y0.0537  
G01 X-0.8294 Y0.0572  
G01 X-0.8357 Y0.0619  
G01 X-0.8413 Y0.0674  
G01 X-0.8459 Y0.0738  
G01 X-0.8495 Y0.0808  
G01 X-0.8519 Y0.0883  
G01 X-0.8531 Y0.0961  
G01 X-0.8531 Y0.1039  
G01 X-0.8520 Y0.1112  
G01 X-0.8520 Y0.1730  
G01 X-1.5991 Y0.1730  
G01 X-1.6009 Y0.1729  
G01 X-1.6018 Y0.1730  
G01 X-1.6027 Y0.1730  
G01 X-1.6044 Y0.1733  
G01 X-1.6062 Y0.1736  
G01 X-1.6070 Y0.1739  
G01 X-1.6079 Y0.1740  
G01 X-1.6095 Y0.1747  
G01 X-1.8256 Y0.2483  
G01 X-1.8273 Y0.2480  
G01 X-1.8777 Y0.2480  
G01 X-1.8829 Y0.2490  
G01 X-1.8878 Y0.2511  
G01 X-1.8922 Y0.2540  
G01 X-1.8960 Y0.2578  
G01 X-1.9460 Y0.3078  
G01 X-1.9489 Y0.3122  
G01 X-1.9510 Y0.3171  
G01 X-1.9520 Y0.3223  
G01 X-1.9520 Y0.4527  
G01 X-1.9510 Y0.4579  
G01 X-1.9489 Y0.4628  
G01 X-1.9460 Y0.4672  
G01 X-1.9422 Y0.4710  
G01 X-1.8007 Y0.6125  
G01 X-1.9422 Y0.7540  
G01 X-1.9460 Y0.7578  
G01 X-1.9489 Y0.7622  
G01 X-1.9510 Y0.7671  
G01 X-1.9520 Y0.7723  
G01 X-1.9520 Y0.9377  
G01 X-1.9510 Y0.9429  
G01 X-1.9489 Y0.9478  
G01 X-1.9460 Y0.9522  
G01 X-1.9160 Y0.9822  
G01 X-1.9122 Y0.9860  
G01 X-1.9078 Y0.9889  
G01 X-1.9029 Y0.9910  
G01 X-1.8977 Y0.9920  
G01 X-1.7716 Y0.9920  
G01 X-1.7706 Y0.9921  
G01 X-1.7690 Y0.9920  
G01 X-1.7673 Y0.9920  
G01 X-1.7663 Y0.9918  
G01 X-1.7653 Y0.9917  
G01 X-1.7637 Y0.9913  
G01 X-1.7621 Y0.9910  
G01 X-1.7612 Y0.9906  
G01 X-1.7602 Y0.9903  
G01 X-1.7587 Y0.9896  
G01 X-1.7572 Y0.9889  
G01 X-1.7564 Y0.9884  
G01 X-1.7554 Y0.9879  
G01 X-1.7541 Y0.9869  
G01 X-1.7528 Y0.9860  
G01 X-1.7521 Y0.9852  
G01 X-1.7513 Y0.9846  
G01 X-1.7502 Y0.9834  
G01 X-1.7490 Y0.9822  
G01 X-1.7485 Y0.9814  
G01 X-1.7478 Y0.9806  
G01 X-1.7470 Y0.9791  
G01 X-1.7461 Y0.9778  
G01 X-1.7457 Y0.9768  
G01 X-1.7452 Y0.9759  
G01 X-1.7447 Y0.9744  
G01 X-1.7440 Y0.9729  
G01 X-1.7438 Y0.9719  
G01 X-1.7435 Y0.9709  
G01 X-1.7433 Y0.9693  
G01 X-1.7430 Y0.9677  
G01 X-1.7430 Y0.9666  
G01 X-1.7255 Y0.8222  
G01 X-1.7244 Y0.8210  
G01 X-1.7208 Y0.8156  
G01 X-1.7183 Y0.8096  
G01 X-1.7175 Y0.8057  
G01 X-1.5590 Y0.6472  
G01 X-1.5186 Y0.6270  
G01 X-1.2697 Y0.6270  
G01 X-1.2637 Y0.6330  
G01 X-1.2363 Y0.6330  
G01 X-1.2170 Y0.6137  
G01 X-1.2170 Y0.6104  
G01 X-1.1008 Y0.5330  
G01 X-1.0863 Y0.5330  
G01 X-1.0670 Y0.5137  
G01 X-1.0670 Y0.4863  
G01 X-1.0863 Y0.4670  
G01 X-1.1137 Y0.4670  
G01 X-1.1330 Y0.4863  
G01 X-1.1330 Y0.4896  
G01 X-1.2492 Y0.5670  
G01 X-1.2637 Y0.5670  
G01 X-1.2697 Y0.5730  
G01 X-1.5233 Y0.5730  
G01 X-1.5243 Y0.5729  
G01 X-1.5260 Y0.5730  
G01 X-1.5277 Y0.5730  
G01 X-1.5286 Y0.5732  
G01 X-1.5296 Y0.5733  
G01 X-1.5312 Y0.5737  
G01 X-1.5329 Y0.5740  
G01 X-1.5338 Y0.5744  
G01 X-1.5347 Y0.5747  
G01 X-1.5362 Y0.5754  
G01 X-1.5378 Y0.5761  
G01 X-1.5386 Y0.5766  
G01 X-1.5862 Y0.6004  
G01 X-1.5878 Y0.6011  
G01 X-1.5886 Y0.6016  
G01 X-1.5895 Y0.6020  
G01 X-1.5908 Y0.6031  
G01 X-1.5922 Y0.6040  
G01 X-1.5929 Y0.6047  
G01 X-1.5937 Y0.6053  
G01 X-1.5948 Y0.6066  
G01 X-1.7557 Y0.7675  
G01 X-1.7596 Y0.7683  
G01 X-1.7656 Y0.7708  
G01 X-1.7710 Y0.7744  
G01 X-1.7756 Y0.7790  
G01 X-1.7792 Y0.7844  
G01 X-1.7817 Y0.7904  
G01 X-1.7830 Y0.7967  
G01 X-1.7830 Y0.8033  
G01 X-1.7817 Y0.8096  
G01 X-1.7792 Y0.8156  
G01 X-1.7791 Y0.8158  
G01 X-1.7939 Y0.9380  
G01 X-1.8838 Y0.9380  
G01 X-1.8980 Y0.9238  
G01 X-1.8980 Y0.7862  
G01 X-1.7453 Y0.6335  
G01 X-1.6443 Y0.5325  
G01 X-1.6404 Y0.5317  
G01 X-1.6344 Y0.5292  
G01 X-1.6290 Y0.5256  
G01 X-1.6244 Y0.5210  
G01 X-1.6208 Y0.5156  
G01 X-1.6183 Y0.5096  
G01 X-1.6170 Y0.5033  
G01 X-1.6170 Y0.4967  
G01 X-1.6183 Y0.4904  
G01 X-1.6208 Y0.4844  
G01 X-1.6244 Y0.4790  
G01 X-1.6290 Y0.4744  
G01 X-1.6344 Y0.4708  
G01 X-1.6404 Y0.4683  
G01 X-1.6467 Y0.4670  
G01 X-1.6533 Y0.4670  
G01 X-1.6596 Y0.4683  
G01 X-1.6656 Y0.4708  
G01 X-1.6710 Y0.4744  
G01 X-1.6756 Y0.4790  
G01 X-1.6792 Y0.4844  
G01 X-1.6817 Y0.4904  
G01 X-1.6825 Y0.4943  
G01 X-1.7625 Y0.5743  
G01 X-1.8980 Y0.4388  
G01 X-1.8980 Y0.3362  
G01 X-1.8638 Y0.3020  
G01 X-1.8585 Y0.3020  
G01 X-1.8639 Y0.3372  
G01 X-1.8730 Y0.3463  
G01 X-1.8730 Y0.3737  
G01 X-1.8537 Y0.3930  
G01 X-1.8263 Y0.3930  
G01 X-1.8070 Y0.3737  
G01 X-1.8070 Y0.3463  
G01 X-1.8101 Y0.3432  
G01 X-1.8033 Y0.2978  
G01 X-1.5955 Y0.2270  
G01 X-0.8223 Y0.2270  
G01 X-0.8171 Y0.2260  
G01 X-0.8122 Y0.2239  
G01 X-0.8078 Y0.2210  
G01 X-0.8040 Y0.2172  
G01 X-0.8011 Y0.2128  
G01 X-0.7990 Y0.2079  
G01 X-0.7980 Y0.2027  
G01 X-0.7980 Y0.1498  
G01 X-0.7914 Y0.1488  
G01 X-0.7840 Y0.1463  
G01 X-0.7769 Y0.1428  
G01 X-0.7706 Y0.1381  
G01 X-0.7650 Y0.1326  
G01 X-0.7610 Y0.1270  
G01 X-0.1346 Y0.1270  
G01 X-0.0970 Y0.1578  
G01 X-0.0970 Y0.2513  
G01 X-0.1257 Y0.2621  
G01 X-0.1318 Y0.2560  
G01 X-0.1682 Y0.2560  
G01 X-0.1852 Y0.2730  
G01 X-0.2148 Y0.2730  
G01 X-0.2318 Y0.2560  
G01 X-0.2682 Y0.2560  
G01 X-0.2940 Y0.2818  
G01 X-0.2940 Y0.3182  
G01 X-0.2682 Y0.3440  
G01 X-0.2318 Y0.3440  
G01 X-0.2148 Y0.3270  
G01 X-0.1852 Y0.3270  
G01 X-0.1770 Y0.3352  
G01 X-0.1770 Y0.3648  
G01 X-0.1852 Y0.3730  
G01 X-0.2148 Y0.3730  
G01 X-0.2318 Y0.3560  
G01 X-0.2682 Y0.3560  
G01 X-0.2940 Y0.3818  
G01 X-0.2940 Y0.4182  
G01 X-0.2682 Y0.4440  
G01 X-0.2318 Y0.4440  
G01 X-0.2148 Y0.4270  
G01 X-0.1852 Y0.4270  
G01 X-0.1770 Y0.4352  
G01 X-0.1770 Y0.4648  
G01 X-0.1852 Y0.4730  
G01 X-0.2148 Y0.4730  
G01 X-0.2271 Y0.4607  
G01 X-0.2290 Y0.4578  
G01 X-0.2328 Y0.4540  
G01 X-0.2372 Y0.4511  
G01 X-0.2421 Y0.4490  
G01 X-0.2473 Y0.4480  
G01 X-0.4670 Y0.4480  
G01 X-0.4670 Y0.4363  
G01 X-0.4863 Y0.4170  
G01 X-0.5137 Y0.4170  
G01 X-0.5330 Y0.4363  
G01 X-0.5330 Y0.4448  
G01 X-0.5672 Y0.4790  
G01 X-0.5710 Y0.4828  
G01 X-0.5739 Y0.4872  
G01 X-0.5760 Y0.4921  
G01 X-0.5770 Y0.4973  
G01 X-0.5770 Y0.6803  
G01 X-0.5830 Y0.6863  
G01 X-0.5830 Y0.7137  
G01 X-0.5637 Y0.7330  
G01 X-0.5363 Y0.7330  
G01 X-0.5170 Y0.7137  
G01 X-0.5170 Y0.6863  
G01 X-0.5230 Y0.6803  
G01 X-0.5230 Y0.5112  
G01 X-0.5113 Y0.4995  
G01 X-0.5079 Y0.5010  
G01 X-0.5027 Y0.5020  
G01 X-0.2940 Y0.5020  
G01 X-0.2940 Y0.5182  
G01 X-0.2682 Y0.5440  
G01 X-0.2318 Y0.5440  
G01 X-0.2148 Y0.5270  
G01 X-0.1852 Y0.5270  
G01 X-0.1682 Y0.5440  
G01 X-0.1318 Y0.5440  
G01 X-0.1060 Y0.5182  
G01 X-0.1060 Y0.4818  
G01 X-0.1230 Y0.4648  
G01 X-0.1230 Y0.4352  
G01 X-0.1060 Y0.4182  
G01 X-0.1060 Y0.3818  
G01 X-0.1230 Y0.3648  
G01 X-0.1230 Y0.3352  
G01 X-0.1060 Y0.3182  
G01 X-0.1060 Y0.3123  
G01 X-0.0626 Y0.2961  
G01 X-0.0621 Y0.2960  
G01 X-0.0601 Y0.2951  
G01 X-0.0580 Y0.2943  
G01 X-0.0576 Y0.2941  
G01 X-0.0572 Y0.2939  
G01 X-0.0554 Y0.2927  
G01 X-0.0535 Y0.2915  
G01 X-0.0532 Y0.2912  
G01 X-0.0528 Y0.2910  
G01 X-0.0512 Y0.2894  
G01 X-0.0496 Y0.2879  
G01 X-0.0494 Y0.2875  
G01 X-0.0490 Y0.2872  
G01 X-0.0478 Y0.2854  
G01 X-0.0465 Y0.2836  
G01 X-0.0463 Y0.2832  
G01 X-0.0461 Y0.2828  
G01 X-0.0452 Y0.2808  
G01 X-0.0443 Y0.2788  
G01 X-0.0442 Y0.2783  
G01 X-0.0440 Y0.2779  
G01 X-0.0436 Y0.2757  
G01 X-0.0431 Y0.2736  
G01 X-0.0431 Y0.2731  
G01 X-0.0430 Y0.2727  
G01 X-0.0430 Y0.2705  
G01 X-0.0429 Y0.2683  
G01 X-0.0430 Y0.2678  
G01 X-0.0430 Y0.1463  
G01 X-0.0429 Y0.1450  
G01 X-0.0430 Y0.1437  
G01 X-0.0430 Y0.1423  
G01 X-0.0433 Y0.1410  
G01 X-0.0434 Y0.1397  
G01 X-0.0438 Y0.1384  
G01 X-0.0440 Y0.1371  
G01 X-0.0446 Y0.1359  
G01 X-0.0450 Y0.1346  
G01 X-0.0456 Y0.1334  
G01 X-0.0461 Y0.1322  
G01 X-0.0468 Y0.1311  
G01 X-0.0475 Y0.1299  
G01 X-0.0483 Y0.1289  
G01 X-0.0490 Y0.1278  
G01 X-0.0500 Y0.1268  
G01 X-0.0508 Y0.1258  
G00 Z0.0500  
G00 X-0.1060 Y0.1818  
G01 Z-0.0040 F10    
G01 X-0.1318 Y0.1560  F20    
G01 X-0.1682 Y0.1560  
G01 X-0.1940 Y0.1818  
G01 X-0.1940 Y0.1820  
G01 X-0.2060 Y0.1820  
G01 X-0.2060 Y0.1818  
G01 X-0.2318 Y0.1560  
G01 X-0.2682 Y0.1560  
G01 X-0.2940 Y0.1818  
G01 X-0.2940 Y0.1820  
G01 X-0.5024 Y0.1820  
G01 X-0.5069 Y0.1832  
G01 X-0.5111 Y0.1856  
G01 X-0.5144 Y0.1889  
G01 X-0.5168 Y0.1931  
G01 X-0.5180 Y0.1976  
G01 X-0.5180 Y0.3213  
G01 X-0.5287 Y0.3320  
G01 X-0.7213 Y0.3320  
G01 X-0.7363 Y0.3170  
G01 X-0.7637 Y0.3170  
G01 X-0.7830 Y0.3363  
G01 X-0.7830 Y0.3576  
G01 X-1.2617 Y0.3668  
G01 X-1.3061 Y0.3135  
G01 X-1.3076 Y0.3117  
G01 X-1.3096 Y0.3103  
G01 X-1.3115 Y0.3090  
G01 X-1.3116 Y0.3089  
G01 X-1.3137 Y0.3081  
G01 X-1.3523 Y0.2937  
G01 X-1.3531 Y0.2932  
G01 X-1.3545 Y0.2928  
G01 X-1.3559 Y0.2923  
G01 X-1.3568 Y0.2922  
G01 X-1.3576 Y0.2920  
G01 X-1.3591 Y0.2920  
G01 X-1.3606 Y0.2919  
G01 X-1.3615 Y0.2920  
G01 X-1.5041 Y0.2920  
G01 X-1.5055 Y0.2919  
G01 X-1.5064 Y0.2920  
G01 X-1.5074 Y0.2920  
G01 X-1.5087 Y0.2924  
G01 X-1.6009 Y0.3069  
G01 X-1.6013 Y0.3069  
G01 X-1.6032 Y0.3073  
G01 X-1.6051 Y0.3076  
G01 X-1.6055 Y0.3078  
G01 X-1.6059 Y0.3078  
G01 X-1.6077 Y0.3087  
G01 X-1.6095 Y0.3095  
G01 X-1.6098 Y0.3098  
G01 X-1.6560 Y0.3329  
G01 X-1.6581 Y0.3339  
G01 X-1.6602 Y0.3350  
G01 X-1.6620 Y0.3366  
G01 X-1.6637 Y0.3381  
G01 X-1.6650 Y0.3401  
G01 X-1.6663 Y0.3421  
G01 X-1.7220 Y0.4270  
G01 X-1.7220 Y0.3887  
G01 X-1.7070 Y0.3737  
G01 X-1.7070 Y0.3463  
G01 X-1.7263 Y0.3270  
G01 X-1.7537 Y0.3270  
G01 X-1.7730 Y0.3463  
G01 X-1.7730 Y0.3737  
G01 X-1.7580 Y0.3887  
G01 X-1.7580 Y0.4293  
G01 X-1.7610 Y0.4689  
G01 X-1.7656 Y0.4708  
G01 X-1.7710 Y0.4744  
G01 X-1.7756 Y0.4790  
G01 X-1.7792 Y0.4844  
G01 X-1.7817 Y0.4904  
G01 X-1.7830 Y0.4967  
G01 X-1.7830 Y0.5033  
G01 X-1.7817 Y0.5096  
G01 X-1.7792 Y0.5156  
G01 X-1.7756 Y0.5210  
G01 X-1.7710 Y0.5256  
G01 X-1.7656 Y0.5292  
G01 X-1.7596 Y0.5317  
G01 X-1.7533 Y0.5330  
G01 X-1.7467 Y0.5330  
G01 X-1.7404 Y0.5317  
G01 X-1.7344 Y0.5292  
G01 X-1.7290 Y0.5256  
G01 X-1.7244 Y0.5210  
G01 X-1.7208 Y0.5156  
G01 X-1.7183 Y0.5096  
G01 X-1.7170 Y0.5033  
G01 X-1.7170 Y0.4967  
G01 X-1.7183 Y0.4904  
G01 X-1.7191 Y0.4883  
G01 X-1.6376 Y0.3639  
G01 X-1.5944 Y0.3423  
G01 X-1.5036 Y0.3280  
G01 X-1.3633 Y0.3280  
G01 X-1.3308 Y0.3402  
G01 X-1.2847 Y0.3955  
G01 X-1.2842 Y0.3963  
G01 X-1.2832 Y0.3973  
G01 X-1.2823 Y0.3983  
G01 X-1.2815 Y0.3989  
G01 X-1.2808 Y0.3996  
G01 X-1.2796 Y0.4003  
G01 X-1.2784 Y0.4011  
G01 X-1.2775 Y0.4014  
G01 X-1.2766 Y0.4019  
G01 X-1.2753 Y0.4022  
G01 X-1.2740 Y0.4027  
G01 X-1.2730 Y0.4028  
G01 X-1.2720 Y0.4030  
G01 X-1.2706 Y0.4030  
G01 X-1.2693 Y0.4031  
G01 X-1.2683 Y0.4030  
G01 X-0.7498 Y0.3930  
G01 X-0.7476 Y0.3930  
G01 X-0.7475 Y0.3930  
G01 X-0.7473 Y0.3930  
G01 X-0.7452 Y0.3923  
G01 X-0.7431 Y0.3918  
G01 X-0.7429 Y0.3917  
G01 X-0.7427 Y0.3916  
G01 X-0.7408 Y0.3905  
G01 X-0.7389 Y0.3894  
G01 X-0.7388 Y0.3893  
G01 X-0.7387 Y0.3892  
G01 X-0.7371 Y0.3876  
G01 X-0.7356 Y0.3861  
G01 X-0.7355 Y0.3859  
G01 X-0.7354 Y0.3858  
G01 X-0.7343 Y0.3839  
G01 X-0.7332 Y0.3819  
G01 X-0.7332 Y0.3818  
G01 X-0.7331 Y0.3816  
G01 X-0.7326 Y0.3795  
G01 X-0.7325 Y0.3791  
G01 X-0.7213 Y0.3680  
G01 X-0.5287 Y0.3680  
G01 X-0.5137 Y0.3830  
G01 X-0.4863 Y0.3830  
G01 X-0.4670 Y0.3637  
G01 X-0.4670 Y0.3363  
G01 X-0.4820 Y0.3213  
G01 X-0.4820 Y0.2180  
G01 X-0.2940 Y0.2180  
G01 X-0.2940 Y0.2182  
G01 X-0.2682 Y0.2440  
G01 X-0.2318 Y0.2440  
G01 X-0.2060 Y0.2182  
G01 X-0.2060 Y0.2180  
G01 X-0.1940 Y0.2180  
G01 X-0.1940 Y0.2182  
G01 X-0.1682 Y0.2440  
G01 X-0.1318 Y0.2440  
G01 X-0.1060 Y0.2182  
G01 X-0.1060 Y0.1818  
G00 Z0.0500  
G00 X-0.1060 Y0.5818  
G01 Z-0.0040 F10    
G01 X-0.1318 Y0.5560  F20    
G01 X-0.1682 Y0.5560  
G01 X-0.1852 Y0.5730  
G01 X-0.2148 Y0.5730  
G01 X-0.2318 Y0.5560  
G01 X-0.2682 Y0.5560  
G01 X-0.2852 Y0.5730  
G01 X-0.4527 Y0.5730  
G01 X-0.4579 Y0.5740  
G01 X-0.4628 Y0.5761  
G01 X-0.4672 Y0.5790  
G01 X-0.4710 Y0.5828  
G01 X-0.4739 Y0.5872  
G01 X-0.4760 Y0.5921  
G01 X-0.4770 Y0.5973  
G01 X-0.4770 Y0.8348  
G01 X-0.5170 Y0.7948  
G01 X-0.5170 Y0.7863  
G01 X-0.5363 Y0.7670  
G01 X-0.5448 Y0.7670  
G01 X-0.5980 Y0.7138  
G01 X-0.5980 Y0.4723  
G01 X-0.5990 Y0.4671  
G01 X-0.6011 Y0.4622  
G01 X-0.6040 Y0.4578  
G01 X-0.6078 Y0.4540  
G01 X-0.6122 Y0.4511  
G01 X-0.6171 Y0.4490  
G01 X-0.6223 Y0.4480  
G01 X-0.9777 Y0.4480  
G01 X-0.9829 Y0.4490  
G01 X-0.9878 Y0.4511  
G01 X-0.9922 Y0.4540  
G01 X-0.9960 Y0.4578  
G01 X-1.1932 Y0.6550  
G01 X-1.2148 Y0.6730  
G01 X-1.2303 Y0.6730  
G01 X-1.2363 Y0.6670  
G01 X-1.2637 Y0.6670  
G01 X-1.2816 Y0.6850  
G01 X-1.4103 Y0.7450  
G01 X-1.4116 Y0.7455  
G01 X-1.4127 Y0.7461  
G01 X-1.4138 Y0.7467  
G01 X-1.4150 Y0.7475  
G01 X-1.4475 Y0.7670  
G01 X-1.4533 Y0.7670  
G01 X-1.4596 Y0.7683  
G01 X-1.4656 Y0.7708  
G01 X-1.4710 Y0.7744  
G01 X-1.4756 Y0.7790  
G01 X-1.4792 Y0.7844  
G01 X-1.4817 Y0.7904  
G01 X-1.4830 Y0.7967  
G01 X-1.4830 Y0.8033  
G01 X-1.4817 Y0.8096  
G01 X-1.4792 Y0.8156  
G01 X-1.4756 Y0.8210  
G01 X-1.4710 Y0.8256  
G01 X-1.4656 Y0.8292  
G01 X-1.4596 Y0.8317  
G01 X-1.4533 Y0.8330  
G01 X-1.4467 Y0.8330  
G01 X-1.4404 Y0.8317  
G01 X-1.4344 Y0.8292  
G01 X-1.4290 Y0.8256  
G01 X-1.4244 Y0.8210  
G01 X-1.4208 Y0.8156  
G01 X-1.4198 Y0.8134  
G01 X-1.3873 Y0.7939  
G01 X-1.2569 Y0.7330  
G01 X-1.2363 Y0.7330  
G01 X-1.2303 Y0.7270  
G01 X-1.2062 Y0.7270  
G01 X-1.2048 Y0.7271  
G01 X-1.2036 Y0.7270  
G01 X-1.2023 Y0.7270  
G01 X-1.2009 Y0.7267  
G01 X-1.1995 Y0.7266  
G01 X-1.1983 Y0.7262  
G01 X-1.1971 Y0.7260  
G01 X-1.1958 Y0.7254  
G01 X-1.1944 Y0.7250  
G01 X-1.1933 Y0.7244  
G01 X-1.1922 Y0.7239  
G01 X-1.1910 Y0.7231  
G01 X-1.1898 Y0.7224  
G01 X-1.1888 Y0.7217  
G01 X-1.1878 Y0.7210  
G01 X-1.1868 Y0.7200  
G01 X-1.1588 Y0.6967  
G01 X-1.1578 Y0.6960  
G01 X-1.1568 Y0.6950  
G01 X-1.1557 Y0.6940  
G01 X-1.1549 Y0.6931  
G01 X-0.9638 Y0.5020  
G01 X-0.6520 Y0.5020  
G01 X-0.6520 Y0.7277  
G01 X-0.6510 Y0.7329  
G01 X-0.6489 Y0.7378  
G01 X-0.6460 Y0.7422  
G01 X-0.5830 Y0.8052  
G01 X-0.5830 Y0.8137  
G01 X-0.5637 Y0.8330  
G01 X-0.5552 Y0.8330  
G01 X-0.4835 Y0.9047  
G01 X-0.4797 Y0.9085  
G01 X-0.4770 Y0.9112  
G01 X-0.4770 Y0.9803  
G01 X-0.4830 Y0.9863  
G01 X-0.4830 Y1.0137  
G01 X-0.4637 Y1.0330  
G01 X-0.4363 Y1.0330  
G01 X-0.4170 Y1.0137  
G01 X-0.4170 Y0.9863  
G01 X-0.4230 Y0.9803  
G01 X-0.4230 Y0.8973  
G01 X-0.4240 Y0.8921  
G01 X-0.4260 Y0.8875  
G01 X-0.4240 Y0.8829  
G01 X-0.4230 Y0.8777  
G01 X-0.4230 Y0.6270  
G01 X-0.2852 Y0.6270  
G01 X-0.2682 Y0.6440  
G01 X-0.2318 Y0.6440  
G01 X-0.2148 Y0.6270  
G01 X-0.1852 Y0.6270  
G01 X-0.1682 Y0.6440  
G01 X-0.1318 Y0.6440  
G01 X-0.1060 Y0.6182  
G01 X-0.1060 Y0.5818  
G00 Z0.0500  
G00 X-0.1060 Y0.6818  
G01 Z-0.0040 F10    
G01 X-0.1318 Y0.6560  F20    
G01 X-0.1682 Y0.6560  
G01 X-0.1940 Y0.6818  
G01 X-0.1940 Y0.6820  
G01 X-0.2060 Y0.6820  
G01 X-0.2060 Y0.6818  
G01 X-0.2318 Y0.6560  
G01 X-0.2682 Y0.6560  
G01 X-0.2940 Y0.6818  
G01 X-0.2940 Y0.7182  
G01 X-0.2682 Y0.7440  
G01 X-0.2318 Y0.7440  
G01 X-0.2060 Y0.7182  
G01 X-0.2060 Y0.7180  
G01 X-0.1940 Y0.7180  
G01 X-0.1940 Y0.7182  
G01 X-0.1682 Y0.7440  
G01 X-0.1318 Y0.7440  
G01 X-0.1060 Y0.7182  
G01 X-0.1060 Y0.6818  
G00 Z0.0500  
G00 X-0.1060 Y0.7818  
G01 Z-0.0040 F10    
G01 X-0.1318 Y0.7560  F20    
G01 X-0.1682 Y0.7560  
G01 X-0.1940 Y0.7818  
G01 X-0.1940 Y0.8182  
G01 X-0.1682 Y0.8440  
G01 X-0.1318 Y0.8440  
G01 X-0.1060 Y0.8182  
G01 X-0.1060 Y0.7818  
G00 Z0.0500  
G00 X-0.2060 Y0.7818  
G01 Z-0.0040 F10    
G01 X-0.2318 Y0.7560  F20    
G01 X-0.2682 Y0.7560  
G01 X-0.2940 Y0.7818  
G01 X-0.2940 Y0.8182  
G01 X-0.2682 Y0.8440  
G01 X-0.2318 Y0.8440  
G01 X-0.2060 Y0.8182  
G01 X-0.2060 Y0.7818  
G00 Z0.0500  
G00 X-0.2060 Y0.8818  
G01 Z-0.0040 F10    
G01 X-0.2318 Y0.8560  F20    
G01 X-0.2682 Y0.8560  
G01 X-0.2940 Y0.8818  
G01 X-0.2940 Y0.9182  
G01 X-0.2682 Y0.9440  
G01 X-0.2318 Y0.9440  
G01 X-0.2060 Y0.9182  
G01 X-0.2060 Y0.8818  
G00 Z0.0500  
G00 X-0.1940 Y0.8818  
G01 Z-0.0040 F10    
G01 X-0.1940 Y0.9182  F20    
G01 X-0.1682 Y0.9440  
G01 X-0.1318 Y0.9440  
G01 X-0.1060 Y0.9182  
G01 X-0.1060 Y0.8818  
G01 X-0.1318 Y0.8560  
G01 X-0.1682 Y0.8560  
G01 X-0.1940 Y0.8818  
G00 Z0.0500  
G00 X-0.6356 Y0.9389  
G01 Z-0.0040 F10    
G01 X-0.6389 Y0.9356  F20    
G01 X-0.6431 Y0.9332  
G01 X-0.6476 Y0.9320  
G01 X-0.7713 Y0.9320  
G01 X-0.7863 Y0.9170  
G01 X-0.8137 Y0.9170  
G01 X-0.8330 Y0.9363  
G01 X-0.8330 Y0.9637  
G01 X-0.8137 Y0.9830  
G01 X-0.7863 Y0.9830  
G01 X-0.7713 Y0.9680  
G01 X-0.6680 Y0.9680  
G01 X-0.6680 Y0.9713  
G01 X-0.6830 Y0.9863  
G01 X-0.6830 Y1.0137  
G01 X-0.6637 Y1.0330  
G01 X-0.6363 Y1.0330  
G01 X-0.6170 Y1.0137  
G01 X-0.6170 Y0.9863  
G01 X-0.6320 Y0.9713  
G01 X-0.6320 Y0.9476  
G01 X-0.6332 Y0.9431  
G01 X-0.6356 Y0.9389  
G00 Z0.0500  
G00 X-0.8363 Y0.9119  
G01 Z-0.0040 F10    
G01 X-0.8360 Y0.9114  F20    
G01 X-0.8356 Y0.9111  
G01 X-0.8347 Y0.9094  
G01 X-0.8337 Y0.9079  
G01 X-0.8335 Y0.9074  
G01 X-0.8332 Y0.9069  
G01 X-0.8327 Y0.9052  
G01 X-0.8322 Y0.9034  
G01 X-0.8321 Y0.9029  
G01 X-0.8320 Y0.9024  
G01 X-0.8320 Y0.9005  
G01 X-0.8221 Y0.7273  
G01 X-0.8132 Y0.6830  
G01 X-0.8113 Y0.6830  
G01 X-0.7920 Y0.6637  
G01 X-0.7920 Y0.6363  
G01 X-0.8113 Y0.6170  
G01 X-0.8387 Y0.6170  
G01 X-0.8580 Y0.6363  
G01 X-0.8580 Y0.6637  
G01 X-0.8481 Y0.6736  
G01 X-0.8574 Y0.7204  
G01 X-0.8578 Y0.7216  
G01 X-0.8579 Y0.7227  
G01 X-0.8581 Y0.7238  
G01 X-0.8580 Y0.7251  
G01 X-0.8676 Y0.8921  
G01 X-0.8925 Y0.9170  
G01 X-0.9137 Y0.9170  
G01 X-0.9330 Y0.9363  
G01 X-0.9330 Y0.9637  
G01 X-0.9290 Y0.9677  
G01 X-0.9511 Y1.0120  
G01 X-1.9083 Y1.0120  
G01 X-1.9720 Y0.9568  
G01 X-1.9720 Y0.0723  
G01 X-1.2446 Y0.0430  
G01 X-1.1506 Y0.0430  
G01 X-1.0485 Y0.1126  
G01 X-1.0463 Y0.1192  
G01 X-1.0428 Y0.1262  
G01 X-1.0381 Y0.1326  
G01 X-1.0326 Y0.1381  
G01 X-1.0262 Y0.1428  
G01 X-1.0192 Y0.1463  
G01 X-1.0117 Y0.1488  
G01 X-1.0039 Y0.1500  
G01 X-0.9961 Y0.1500  
G01 X-0.9883 Y0.1488  
G01 X-0.9808 Y0.1463  
G01 X-0.9738 Y0.1428  
G01 X-0.9674 Y0.1381  
G01 X-0.9619 Y0.1326  
G01 X-0.9572 Y0.1262  
G01 X-0.9537 Y0.1192  
G01 X-0.9512 Y0.1117  
G01 X-0.9500 Y0.1039  
G01 X-0.9500 Y0.0961  
G01 X-0.9512 Y0.0883  
G01 X-0.9537 Y0.0808  
G01 X-0.9572 Y0.0738  
G01 X-0.9619 Y0.0674  
G01 X-0.9674 Y0.0619  
G01 X-0.9738 Y0.0572  
G01 X-0.9808 Y0.0537  
G01 X-0.9883 Y0.0512  
G01 X-0.9961 Y0.0500  
G01 X-1.0039 Y0.0500  
G01 X-1.0117 Y0.0512  
G01 X-1.0192 Y0.0537  
G01 X-1.0262 Y0.0572  
G01 X-1.0326 Y0.0619  
G01 X-1.0381 Y0.0674  
G01 X-1.0423 Y0.0732  
G01 X-1.1335 Y0.0111  
G01 X-1.1339 Y0.0106  
G01 X-1.1354 Y0.0097  
G01 X-1.1368 Y0.0088  
G01 X-1.1375 Y0.0086  
G01 X-1.1381 Y0.0082  
G01 X-1.1397 Y0.0078  
G01 X-1.1413 Y0.0072  
G01 X-1.1420 Y0.0072  
G01 X-1.1426 Y0.0070  
G01 X-1.1443 Y0.0070  
G01 X-1.1460 Y0.0069  
G01 X-1.1467 Y0.0070  
G01 X-1.2430 Y0.0070  
G01 X-1.2434 Y0.0069  
G01 X-1.2454 Y0.0070  
G01 X-1.2474 Y0.0070  
G01 X-1.2477 Y0.0071  
G01 X-1.9904 Y0.0370  
G01 X-1.9924 Y0.0370  
G01 X-1.9927 Y0.0371  
G01 X-1.9931 Y0.0371  
G01 X-1.9950 Y0.0377  
G01 X-1.9969 Y0.0382  
G01 X-1.9973 Y0.0384  
G01 X-1.9976 Y0.0385  
G01 X-1.9993 Y0.0396  
G01 X-2.0011 Y0.0406  
G01 X-2.0013 Y0.0409  
G01 X-2.0016 Y0.0411  
G01 X-2.0030 Y0.0425  
G01 X-2.0044 Y0.0439  
G01 X-2.0046 Y0.0443  
G01 X-2.0048 Y0.0445  
G01 X-2.0058 Y0.0463  
G01 X-2.0068 Y0.0481  
G01 X-2.0069 Y0.0484  
G01 X-2.0070 Y0.0487  
G01 X-2.0075 Y0.0507  
G01 X-2.0080 Y0.0526  
G01 X-2.0080 Y0.0530  
G01 X-2.0081 Y0.0534  
G01 X-2.0080 Y0.0554  
G01 X-2.0080 Y0.9633  
G01 X-2.0081 Y0.9639  
G01 X-2.0080 Y0.9656  
G01 X-2.0080 Y0.9674  
G01 X-2.0078 Y0.9680  
G01 X-2.0078 Y0.9686  
G01 X-2.0072 Y0.9703  
G01 X-2.0068 Y0.9719  
G01 X-2.0064 Y0.9725  
G01 X-2.0062 Y0.9731  
G01 X-2.0053 Y0.9746  
G01 X-2.0044 Y0.9761  
G01 X-2.0039 Y0.9765  
G01 X-2.0036 Y0.9771  
G01 X-2.0023 Y0.9782  
G01 X-2.0011 Y0.9794  
G01 X-2.0005 Y0.9797  
G01 X-1.9273 Y1.0432  
G01 X-1.9261 Y1.0444  
G01 X-1.9255 Y1.0447  
G01 X-1.9250 Y1.0452  
G01 X-1.9234 Y1.0459  
G01 X-1.9219 Y1.0468  
G01 X-1.9213 Y1.0469  
G01 X-1.9207 Y1.0472  
G01 X-1.9190 Y1.0476  
G01 X-1.9174 Y1.0480  
G01 X-1.9167 Y1.0480  
G01 X-1.9161 Y1.0481  
G01 X-1.9144 Y1.0480  
G01 X-0.9418 Y1.0480  
G01 X-0.9413 Y1.0481  
G01 X-0.9395 Y1.0480  
G01 X-0.9376 Y1.0480  
G01 X-0.9371 Y1.0479  
G01 X-0.9366 Y1.0478  
G01 X-0.9348 Y1.0472  
G01 X-0.9331 Y1.0468  
G01 X-0.9326 Y1.0465  
G01 X-0.9321 Y1.0463  
G01 X-0.9305 Y1.0453  
G01 X-0.9289 Y1.0444  
G01 X-0.9286 Y1.0440  
G01 X-0.9281 Y1.0437  
G01 X-0.9269 Y1.0423  
G01 X-0.9256 Y1.0411  
G01 X-0.9253 Y1.0406  
G01 X-0.9250 Y1.0402  
G01 X-0.9241 Y1.0385  
G01 X-0.9232 Y1.0369  
G01 X-0.9231 Y1.0364  
G01 X-0.8964 Y0.9830  
G01 X-0.8863 Y0.9830  
G01 X-0.8670 Y0.9637  
G01 X-0.8670 Y0.9425  
G01 X-0.8376 Y0.9131  
G01 X-0.8363 Y0.9119  
G00 Z0.0500  
G00 X-0.9670 Y0.9363  
G01 Z-0.0040 F10    
G01 X-0.9790 Y0.9243  F20    
G01 X-0.9725 Y0.8656  
G01 X-0.8979 Y0.7330  
G01 X-0.8863 Y0.7330  
G01 X-0.8670 Y0.7137  
G01 X-0.8670 Y0.6863  
G01 X-0.8863 Y0.6670  
G01 X-0.9137 Y0.6670  
G01 X-0.9330 Y0.6863  
G01 X-0.9330 Y0.7137  
G01 X-0.9300 Y0.7167  
G01 X-1.0051 Y0.8502  
G01 X-1.0059 Y0.8512  
G01 X-1.0063 Y0.8523  
G01 X-1.0069 Y0.8532  
G01 X-1.0072 Y0.8545  
G01 X-1.0076 Y0.8557  
G01 X-1.0078 Y0.8568  
G01 X-1.0080 Y0.8578  
G01 X-1.0080 Y0.8591  
G01 X-1.0145 Y0.9179  
G01 X-1.0330 Y0.9363  
G01 X-1.0330 Y0.9397  
G01 X-1.0422 Y0.9420  
G01 X-1.5807 Y0.9420  
G01 X-1.6077 Y0.9043  
G01 X-1.6070 Y0.9037  
G01 X-1.6070 Y0.8763  
G01 X-1.6255 Y0.8579  
G01 X-1.6290 Y0.8257  
G01 X-1.6244 Y0.8210  
G01 X-1.6208 Y0.8156  
G01 X-1.6183 Y0.8096  
G01 X-1.6170 Y0.8033  
G01 X-1.6170 Y0.7967  
G01 X-1.6183 Y0.7904  
G01 X-1.6208 Y0.7844  
G01 X-1.6244 Y0.7790  
G01 X-1.6290 Y0.7744  
G01 X-1.6344 Y0.7708  
G01 X-1.6404 Y0.7683  
G01 X-1.6467 Y0.7670  
G01 X-1.6533 Y0.7670  
G01 X-1.6596 Y0.7683  
G01 X-1.6656 Y0.7708  
G01 X-1.6710 Y0.7744  
G01 X-1.6756 Y0.7790  
G01 X-1.6792 Y0.7844  
G01 X-1.6817 Y0.7904  
G01 X-1.6830 Y0.7967  
G01 X-1.6830 Y0.8033  
G01 X-1.6817 Y0.8096  
G01 X-1.6792 Y0.8156  
G01 X-1.6756 Y0.8210  
G01 X-1.6710 Y0.8256  
G01 X-1.6656 Y0.8292  
G01 X-1.6648 Y0.8296  
G01 X-1.6610 Y0.8643  
G01 X-1.6730 Y0.8763  
G01 X-1.6730 Y0.9037  
G01 X-1.6537 Y0.9230  
G01 X-1.6385 Y0.9230  
G01 X-1.6052 Y0.9698  
G01 X-1.6044 Y0.9711  
G01 X-1.6038 Y0.9717  
G01 X-1.6033 Y0.9724  
G01 X-1.6021 Y0.9733  
G01 X-1.6011 Y0.9744  
G01 X-1.6003 Y0.9748  
G01 X-1.5996 Y0.9754  
G01 X-1.5982 Y0.9760  
G01 X-1.5969 Y0.9768  
G01 X-1.5961 Y0.9770  
G01 X-1.5953 Y0.9774  
G01 X-1.5938 Y0.9776  
G01 X-1.5924 Y0.9780  
G01 X-1.5915 Y0.9780  
G01 X-1.5906 Y0.9781  
G01 X-1.5891 Y0.9780  
G01 X-1.0401 Y0.9780  
G01 X-1.0379 Y0.9780  
G01 X-1.0378 Y0.9780  
G01 X-1.0376 Y0.9780  
G01 X-1.0355 Y0.9774  
G01 X-1.0225 Y0.9742  
G01 X-1.0137 Y0.9830  
G01 X-0.9863 Y0.9830  
G01 X-0.9670 Y0.9637  
G01 X-0.9670 Y0.9363  
G00 Z0.0500  
G00 X-1.0995 Y0.9095  
G01 Z-0.0040 F10    
G01 X-1.0705 Y0.8805  F20    
G01 X-1.0705 Y0.8395  
G01 X-1.0967 Y0.8133  
G01 X-1.0921 Y0.7723  
G01 X-1.0865 Y0.7330  
G01 X-1.0863 Y0.7330  
G01 X-1.0670 Y0.7137  
G01 X-1.0670 Y0.6863  
G01 X-1.0863 Y0.6670  
G01 X-1.1137 Y0.6670  
G01 X-1.1330 Y0.6863  
G01 X-1.1330 Y0.7137  
G01 X-1.1217 Y0.7249  
G01 X-1.1275 Y0.7654  
G01 X-1.1276 Y0.7657  
G01 X-1.1279 Y0.7677  
G01 X-1.1282 Y0.7698  
G01 X-1.1281 Y0.7701  
G01 X-1.1326 Y0.8105  
G01 X-1.1405 Y0.8105  
G01 X-1.1695 Y0.8395  
G01 X-1.1695 Y0.8474  
G01 X-1.2118 Y0.8521  
G01 X-1.2938 Y0.8595  
G01 X-1.3063 Y0.8470  
G01 X-1.3337 Y0.8470  
G01 X-1.3530 Y0.8663  
G01 X-1.3530 Y0.8937  
G01 X-1.3337 Y0.9130  
G01 X-1.3063 Y0.9130  
G01 X-1.2885 Y0.8952  
G01 X-1.2105 Y0.8881  
G01 X-1.2104 Y0.8882  
G01 X-1.2082 Y0.8879  
G01 X-1.2060 Y0.8877  
G01 X-1.2058 Y0.8876  
G01 X-1.1667 Y0.8833  
G01 X-1.1405 Y0.9095  
G01 X-1.0995 Y0.9095  
G00 Z0.0500  
G00 X-1.4870 Y0.8937  
G01 Z-0.0040 F10    
G01 X-1.4870 Y0.8663  F20    
G01 X-1.5063 Y0.8470  
G01 X-1.5215 Y0.8167  
G01 X-1.5208 Y0.8156  
G01 X-1.5183 Y0.8096  
G01 X-1.5170 Y0.8033  
G01 X-1.5170 Y0.7967  
G01 X-1.5183 Y0.7904  
G01 X-1.5208 Y0.7844  
G01 X-1.5244 Y0.7790  
G01 X-1.5290 Y0.7744  
G01 X-1.5344 Y0.7708  
G01 X-1.5404 Y0.7683  
G01 X-1.5467 Y0.7670  
G01 X-1.5533 Y0.7670  
G01 X-1.5596 Y0.7683  
G01 X-1.5656 Y0.7708  
G01 X-1.5710 Y0.7744  
G01 X-1.5756 Y0.7790  
G01 X-1.5792 Y0.7844  
G01 X-1.5817 Y0.7904  
G01 X-1.5830 Y0.7967  
G01 X-1.5830 Y0.8033  
G01 X-1.5817 Y0.8096  
G01 X-1.5792 Y0.8156  
G01 X-1.5756 Y0.8210  
G01 X-1.5710 Y0.8256  
G01 X-1.5656 Y0.8292  
G01 X-1.5596 Y0.8317  
G01 X-1.5537 Y0.8329  
G01 X-1.5423 Y0.8556  
G01 X-1.5530 Y0.8663  
G01 X-1.5530 Y0.8937  
G01 X-1.5337 Y0.9130  
G01 X-1.5063 Y0.9130  
G01 X-1.4870 Y0.8937  
G00 Z0.0500  
G00 X-1.8070 Y0.9037  
G01 Z-0.0040 F10    
G01 X-1.8070 Y0.8763  F20    
G01 X-1.8142 Y0.8691  
G01 X-1.8076 Y0.7830  
G01 X-1.5568 Y0.5323  
G01 X-1.5533 Y0.5330  
G01 X-1.5467 Y0.5330  
G01 X-1.5404 Y0.5317  
G01 X-1.5344 Y0.5292  
G01 X-1.5290 Y0.5256  
G01 X-1.5244 Y0.5210  
G01 X-1.5208 Y0.5156  
G01 X-1.5183 Y0.5096  
G01 X-1.5170 Y0.5033  
G01 X-1.5170 Y0.4967  
G01 X-1.5183 Y0.4904  
G01 X-1.5208 Y0.4844  
G01 X-1.5244 Y0.4790  
G01 X-1.5290 Y0.4744  
G01 X-1.5320 Y0.4723  
G01 X-1.5320 Y0.4287  
G01 X-1.5170 Y0.4137  
G01 X-1.5170 Y0.3863  
G01 X-1.5363 Y0.3670  
G01 X-1.5637 Y0.3670  
G01 X-1.5830 Y0.3863  
G01 X-1.5830 Y0.4137  
G01 X-1.5680 Y0.4287  
G01 X-1.5680 Y0.4723  
G01 X-1.5710 Y0.4744  
G01 X-1.5756 Y0.4790  
G01 X-1.5792 Y0.4844  
G01 X-1.5817 Y0.4904  
G01 X-1.5830 Y0.4967  
G01 X-1.5830 Y0.5033  
G01 X-1.5823 Y0.5068  
G01 X-1.8372 Y0.7618  
G01 X-1.8385 Y0.7629  
G01 X-1.8389 Y0.7635  
G01 X-1.8394 Y0.7639  
G01 X-1.8402 Y0.7654  
G01 X-1.8412 Y0.7668  
G01 X-1.8414 Y0.7674  
G01 X-1.8418 Y0.7681  
G01 X-1.8422 Y0.7697  
G01 X-1.8428 Y0.7713  
G01 X-1.8428 Y0.7720  
G01 X-1.8430 Y0.7726  
G01 X-1.8430 Y0.7743  
G01 X-1.8494 Y0.8570  
G01 X-1.8537 Y0.8570  
G01 X-1.8730 Y0.8763  
G01 X-1.8730 Y0.9037  
G01 X-1.8537 Y0.9230  
G01 X-1.8368 Y0.9230  
G01 X-1.8363 Y0.9231  
G01 X-1.8352 Y0.9230  
G01 X-1.8340 Y0.9231  
G01 X-1.8333 Y0.9230  
G01 X-1.8263 Y0.9230  
G01 X-1.8070 Y0.9037  
G00 Z0.0500  
G00 X-1.4756 Y0.5210  
G01 Z-0.0040 F10    
G01 X-1.4710 Y0.5256  F20    
G01 X-1.4656 Y0.5292  
G01 X-1.4596 Y0.5317  
G01 X-1.4533 Y0.5330  
G01 X-1.4467 Y0.5330  
G01 X-1.4404 Y0.5317  
G01 X-1.4344 Y0.5292  
G01 X-1.4290 Y0.5256  
G01 X-1.4244 Y0.5210  
G01 X-1.4223 Y0.5180  
G01 X-1.4018 Y0.5180  
G01 X-1.4013 Y0.5181  
G01 X-1.3995 Y0.5180  
G01 X-1.2787 Y0.5180  
G01 X-1.2637 Y0.5330  
G01 X-1.2363 Y0.5330  
G01 X-1.2170 Y0.5137  
G01 X-1.2170 Y0.4863  
G01 X-1.2363 Y0.4670  
G01 X-1.2637 Y0.4670  
G01 X-1.2787 Y0.4820  
G01 X-1.3709 Y0.4820  
G01 X-1.3464 Y0.4330  
G01 X-1.3363 Y0.4330  
G01 X-1.3170 Y0.4137  
G01 X-1.3170 Y0.3863  
G01 X-1.3363 Y0.3670  
G01 X-1.3637 Y0.3670  
G01 X-1.3830 Y0.3863  
G01 X-1.3830 Y0.4137  
G01 X-1.3790 Y0.4177  
G01 X-1.4111 Y0.4820  
G01 X-1.4223 Y0.4820  
G01 X-1.4244 Y0.4790  
G01 X-1.4290 Y0.4744  
G01 X-1.4344 Y0.4708  
G01 X-1.4404 Y0.4683  
G01 X-1.4467 Y0.4670  
G01 X-1.4533 Y0.4670  
G01 X-1.4596 Y0.4683  
G01 X-1.4656 Y0.4708  
G01 X-1.4710 Y0.4744  
G01 X-1.4756 Y0.4790  
G01 X-1.4792 Y0.4844  
G01 X-1.4817 Y0.4904  
G01 X-1.4830 Y0.4967  
G01 X-1.4830 Y0.5033  
G01 X-1.4817 Y0.5096  
G01 X-1.4792 Y0.5156  
G01 X-1.4756 Y0.5210  
G00 Z0.0500  
G00 X-1.2830 Y0.3137  
G01 Z-0.0040 F10    
G01 X-1.2637 Y0.3330  F20    
G01 X-1.2363 Y0.3330  
G01 X-1.2213 Y0.3180  
G01 X-1.1495 Y0.3180  
G01 X-1.1495 Y0.3205  
G01 X-1.1205 Y0.3495  
G01 X-1.0795 Y0.3495  
G01 X-1.0505 Y0.3205  
G01 X-1.0505 Y0.2795  
G01 X-1.0795 Y0.2505  
G01 X-1.1205 Y0.2505  
G01 X-1.1495 Y0.2795  
G01 X-1.1495 Y0.2820  
G01 X-1.2213 Y0.2820  
G01 X-1.2363 Y0.2670  
G01 X-1.2637 Y0.2670  
G01 X-1.2830 Y0.2863  
G01 X-1.2830 Y0.3137  
G00 Z0.0500  
G00 X-1.2350 Y0.1326  
G01 Z-0.0040 F10    
G01 X-1.2294 Y0.1381  F20    
G01 X-1.2231 Y0.1428  
G01 X-1.2160 Y0.1463  
G01 X-1.2086 Y0.1488  
G01 X-1.2008 Y0.1500  
G01 X-1.1929 Y0.1500  
G01 X-1.1851 Y0.1488  
G01 X-1.1777 Y0.1463  
G01 X-1.1706 Y0.1428  
G01 X-1.1643 Y0.1381  
G01 X-1.1587 Y0.1326  
G01 X-1.1541 Y0.1262  
G01 X-1.1505 Y0.1192  
G01 X-1.1481 Y0.1117  
G01 X-1.1469 Y0.1039  
G01 X-1.1469 Y0.0961  
G01 X-1.1481 Y0.0883  
G01 X-1.1505 Y0.0808  
G01 X-1.1541 Y0.0738  
G01 X-1.1587 Y0.0674  
G01 X-1.1643 Y0.0619  
G01 X-1.1706 Y0.0572  
G01 X-1.1777 Y0.0537  
G01 X-1.1851 Y0.0512  
G01 X-1.1929 Y0.0500  
G01 X-1.2008 Y0.0500  
G01 X-1.2086 Y0.0512  
G01 X-1.2160 Y0.0537  
G01 X-1.2231 Y0.0572  
G01 X-1.2294 Y0.0619  
G01 X-1.2350 Y0.0674  
G01 X-1.2396 Y0.0738  
G01 X-1.2432 Y0.0808  
G01 X-1.2447 Y0.0854  
G01 X-1.7015 Y0.1184  
G01 X-1.7295 Y0.0905  
G01 X-1.7705 Y0.0905  
G01 X-1.7995 Y0.1195  
G01 X-1.7995 Y0.1605  
G01 X-1.7705 Y0.1895  
G01 X-1.7295 Y0.1895  
G01 X-1.7005 Y0.1605  
G01 X-1.7005 Y0.1545  
G01 X-1.2421 Y0.1213  
G01 X-1.2396 Y0.1262  
G01 X-1.2350 Y0.1326  
G00 Z0.0500  
G00 X-0.9330 Y0.5863  
G01 Z-0.0040 F10    
G01 X-0.9330 Y0.6137  F20    
G01 X-0.9137 Y0.6330  
G01 X-0.8863 Y0.6330  
G01 X-0.8670 Y0.6137  
G01 X-0.8670 Y0.5978  
G01 X-0.8526 Y0.5869  
G01 X-0.7740 Y0.5727  
G01 X-0.7637 Y0.5830  
G01 X-0.7363 Y0.5830  
G01 X-0.7170 Y0.5637  
G01 X-0.7170 Y0.5363  
G01 X-0.7363 Y0.5170  
G01 X-0.7637 Y0.5170  
G01 X-0.7830 Y0.5363  
G01 X-0.7830 Y0.5377  
G01 X-0.8627 Y0.5522  
G01 X-0.8645 Y0.5524  
G01 X-0.8650 Y0.5526  
G01 X-0.8656 Y0.5527  
G01 X-0.8672 Y0.5535  
G01 X-0.8689 Y0.5542  
G01 X-0.8693 Y0.5545  
G01 X-0.8698 Y0.5547  
G01 X-0.8712 Y0.5559  
G01 X-0.8862 Y0.5671  
G01 X-0.8863 Y0.5670  
G01 X-0.9137 Y0.5670  
G01 X-0.9330 Y0.5863  
G00 Z0.0500  
G00 X-0.0501 Y0.1251  
G01 Z-0.0040 F10    
G01 X-0.0512 Y0.1242  F20    
G01 X-0.0522 Y0.1233  
G01 X-0.0533 Y0.1225  
G01 X-0.1062 Y0.0792  
G01 X-0.1072 Y0.0783  
G01 X-0.1083 Y0.0775  
G01 X-0.1094 Y0.0766  
G01 X-0.1106 Y0.0759  
G01 X-0.1117 Y0.0752  
G01 X-0.1130 Y0.0746  
G01 X-0.1143 Y0.0740  
G01 X-0.1156 Y0.0736  
G01 X-0.1168 Y0.0731  
G01 X-0.1182 Y0.0728  
G01 X-0.1196 Y0.0724  
G01 X-0.1209 Y0.0723  
G01 X-0.1222 Y0.0720  
G01 X-0.1236 Y0.0720  
G01 X-0.1250 Y0.0719  
G01 X-0.1264 Y0.0720  
G01 X-0.7605 Y0.0720  
G01 X-0.7642 Y0.0668  
G01 X-0.7699 Y0.0611  
G01 X-0.7764 Y0.0564  
G01 X-0.7836 Y0.0527  
G01 X-0.7912 Y0.0503  
G01 X-0.7991 Y0.0490  
G01 X-0.8072 Y0.0490  
G01 X-0.8151 Y0.0503  
G01 X-0.8227 Y0.0527  
G01 X-0.8299 Y0.0564  
G01 X-0.8364 Y0.0611  
G01 X-0.8421 Y0.0668  
G01 X-0.8468 Y0.0733  
G01 X-0.8504 Y0.0804  
G01 X-0.8529 Y0.0881  
G01 X-0.8541 Y0.0960  
G01 X-0.8541 Y0.1040  
G01 X-0.8530 Y0.1113  
G01 X-0.8530 Y0.1720  
G01 X-1.5991 Y0.1720  
G01 X-1.6010 Y0.1719  
G01 X-1.6019 Y0.1720  
G01 X-1.6028 Y0.1720  
G01 X-1.6046 Y0.1724  
G01 X-1.6064 Y0.1726  
G01 X-1.6073 Y0.1729  
G01 X-1.6082 Y0.1731  
G01 X-1.6099 Y0.1738  
G01 X-1.8257 Y0.2473  
G01 X-1.8272 Y0.2470  
G01 X-1.8778 Y0.2470  
G01 X-1.8832 Y0.2481  
G01 X-1.8883 Y0.2502  
G01 X-1.8928 Y0.2533  
G01 X-1.8967 Y0.2572  
G01 X-1.9467 Y0.3072  
G01 X-1.9498 Y0.3117  
G01 X-1.9519 Y0.3168  
G01 X-1.9530 Y0.3222  
G01 X-1.9530 Y0.4528  
G01 X-1.9519 Y0.4582  
G01 X-1.9498 Y0.4633  
G01 X-1.9467 Y0.4678  
G01 X-1.9428 Y0.4717  
G01 X-1.8021 Y0.6125  
G01 X-1.9428 Y0.7533  
G01 X-1.9467 Y0.7572  
G01 X-1.9498 Y0.7617  
G01 X-1.9519 Y0.7668  
G01 X-1.9530 Y0.7722  
G01 X-1.9530 Y0.9378  
G01 X-1.9519 Y0.9432  
G01 X-1.9498 Y0.9483  
G01 X-1.9467 Y0.9528  
G01 X-1.9167 Y0.9828  
G01 X-1.9128 Y0.9867  
G01 X-1.9083 Y0.9898  
G01 X-1.9032 Y0.9919  
G01 X-1.8978 Y0.9930  
G01 X-1.7717 Y0.9930  
G01 X-1.7706 Y0.9931  
G01 X-1.7689 Y0.9930  
G01 X-1.7672 Y0.9930  
G01 X-1.7662 Y0.9928  
G01 X-1.7651 Y0.9927  
G01 X-1.7635 Y0.9923  
G01 X-1.7618 Y0.9919  
G01 X-1.7608 Y0.9915  
G01 X-1.7598 Y0.9912  
G01 X-1.7583 Y0.9905  
G01 X-1.7567 Y0.9898  
G01 X-1.7559 Y0.9892  
G01 X-1.7549 Y0.9887  
G01 X-1.7536 Y0.9877  
G01 X-1.7522 Y0.9867  
G01 X-1.7514 Y0.9860  
G01 X-1.7506 Y0.9853  
G01 X-1.7495 Y0.9840  
G01 X-1.7483 Y0.9828  
G01 X-1.7477 Y0.9820  
G01 X-1.7470 Y0.9812  
G01 X-1.7461 Y0.9797  
G01 X-1.7452 Y0.9783  
G01 X-1.7448 Y0.9773  
G01 X-1.7443 Y0.9763  
G01 X-1.7437 Y0.9747  
G01 X-1.7431 Y0.9732  
G01 X-1.7429 Y0.9721  
G01 X-1.7425 Y0.9711  
G01 X-1.7423 Y0.9694  
G01 X-1.7420 Y0.9678  
G01 X-1.7420 Y0.9667  
G01 X-1.7245 Y0.8226  
G01 X-1.7236 Y0.8217  
G01 X-1.7199 Y0.8161  
G01 X-1.7173 Y0.8099  
G01 X-1.7166 Y0.8062  
G01 X-1.5584 Y0.6480  
G01 X-1.5184 Y0.6280  
G01 X-1.2701 Y0.6280  
G01 X-1.2641 Y0.6340  
G01 X-1.2359 Y0.6340  
G01 X-1.2160 Y0.6141  
G01 X-1.2160 Y0.6110  
G01 X-1.1005 Y0.5340  
G01 X-1.0859 Y0.5340  
G01 X-1.0660 Y0.5141  
G01 X-1.0660 Y0.4859  
G01 X-1.0859 Y0.4660  
G01 X-1.1141 Y0.4660  
G01 X-1.1340 Y0.4859  
G01 X-1.1340 Y0.4890  
G01 X-1.2495 Y0.5660  
G01 X-1.2641 Y0.5660  
G01 X-1.2701 Y0.5720  
G01 X-1.5232 Y0.5720  
G01 X-1.5242 Y0.5719  
G01 X-1.5260 Y0.5720  
G01 X-1.5278 Y0.5720  
G01 X-1.5287 Y0.5722  
G01 X-1.5297 Y0.5723  
G01 X-1.5314 Y0.5727  
G01 X-1.5332 Y0.5731  
G01 X-1.5341 Y0.5735  
G01 X-1.5351 Y0.5737  
G01 X-1.5366 Y0.5745  
G01 X-1.5383 Y0.5752  
G01 X-1.5391 Y0.5757  
G01 X-1.5866 Y0.5995  
G01 X-1.5883 Y0.6002  
G01 X-1.5891 Y0.6007  
G01 X-1.5900 Y0.6012  
G01 X-1.5914 Y0.6023  
G01 X-1.5928 Y0.6033  
G01 X-1.5936 Y0.6040  
G01 X-1.5943 Y0.6046  
G01 X-1.5955 Y0.6059  
G01 X-1.7562 Y0.7666  
G01 X-1.7599 Y0.7673  
G01 X-1.7661 Y0.7699  
G01 X-1.7717 Y0.7736  
G01 X-1.7764 Y0.7783  
G01 X-1.7801 Y0.7839  
G01 X-1.7827 Y0.7901  
G01 X-1.7840 Y0.7967  
G01 X-1.7840 Y0.8033  
G01 X-1.7827 Y0.8099  
G01 X-1.7802 Y0.8161  
G01 X-1.7948 Y0.9370  
G01 X-1.8834 Y0.9370  
G01 X-1.8970 Y0.9234  
G01 X-1.8970 Y0.7866  
G01 X-1.7447 Y0.6342  
G01 X-1.6438 Y0.5334  
G01 X-1.6401 Y0.5327  
G01 X-1.6339 Y0.5301  
G01 X-1.6283 Y0.5264  
G01 X-1.6236 Y0.5217  
G01 X-1.6199 Y0.5161  
G01 X-1.6173 Y0.5099  
G01 X-1.6160 Y0.5033  
G01 X-1.6160 Y0.4967  
G01 X-1.6173 Y0.4901  
G01 X-1.6199 Y0.4839  
G01 X-1.6236 Y0.4783  
G01 X-1.6283 Y0.4736  
G01 X-1.6339 Y0.4699  
G01 X-1.6401 Y0.4673  
G01 X-1.6467 Y0.4660  
G01 X-1.6533 Y0.4660  
G01 X-1.6599 Y0.4673  
G01 X-1.6661 Y0.4699  
G01 X-1.6717 Y0.4736  
G01 X-1.6764 Y0.4783  
G01 X-1.6801 Y0.4839  
G01 X-1.6827 Y0.4901  
G01 X-1.6834 Y0.4938  
G01 X-1.7625 Y0.5729  
G01 X-1.8970 Y0.4384  
G01 X-1.8970 Y0.3366  
G01 X-1.8634 Y0.3030  
G01 X-1.8597 Y0.3030  
G01 X-1.8648 Y0.3367  
G01 X-1.8740 Y0.3459  
G01 X-1.8740 Y0.3741  
G01 X-1.8541 Y0.3940  
G01 X-1.8259 Y0.3940  
G01 X-1.8060 Y0.3741  
G01 X-1.8060 Y0.3459  
G01 X-1.8091 Y0.3428  
G01 X-1.8024 Y0.2985  
G01 X-1.5954 Y0.2280  
G01 X-0.8222 Y0.2280  
G01 X-0.8168 Y0.2269  
G01 X-0.8117 Y0.2248  
G01 X-0.8072 Y0.2217  
G01 X-0.8033 Y0.2178  
G01 X-0.8002 Y0.2133  
G01 X-0.7981 Y0.2082  
G01 X-0.7970 Y0.2028  
G01 X-0.7970 Y0.1507  
G01 X-0.7912 Y0.1497  
G01 X-0.7836 Y0.1473  
G01 X-0.7764 Y0.1436  
G01 X-0.7699 Y0.1389  
G01 X-0.7642 Y0.1332  
G01 X-0.7605 Y0.1280  
G01 X-0.1350 Y0.1280  
G01 X-0.0980 Y0.1583  
G01 X-0.0980 Y0.2506  
G01 X-0.1255 Y0.2609  
G01 X-0.1314 Y0.2550  
G01 X-0.1686 Y0.2550  
G01 X-0.1856 Y0.2720  
G01 X-0.2144 Y0.2720  
G01 X-0.2314 Y0.2550  
G01 X-0.2686 Y0.2550  
G01 X-0.2950 Y0.2814  
G01 X-0.2950 Y0.3186  
G01 X-0.2686 Y0.3450  
G01 X-0.2314 Y0.3450  
G01 X-0.2144 Y0.3280  
G01 X-0.1856 Y0.3280  
G01 X-0.1780 Y0.3356  
G01 X-0.1780 Y0.3644  
G01 X-0.1856 Y0.3720  
G01 X-0.2144 Y0.3720  
G01 X-0.2314 Y0.3550  
G01 X-0.2686 Y0.3550  
G01 X-0.2950 Y0.3814  
G01 X-0.2950 Y0.4186  
G01 X-0.2686 Y0.4450  
G01 X-0.2314 Y0.4450  
G01 X-0.2144 Y0.4280  
G01 X-0.1856 Y0.4280  
G01 X-0.1780 Y0.4356  
G01 X-0.1780 Y0.4644  
G01 X-0.1856 Y0.4720  
G01 X-0.2144 Y0.4720  
G01 X-0.2263 Y0.4600  
G01 X-0.2283 Y0.4572  
G01 X-0.2322 Y0.4533  
G01 X-0.2367 Y0.4502  
G01 X-0.2418 Y0.4481  
G01 X-0.2472 Y0.4470  
G01 X-0.4660 Y0.4470  
G01 X-0.4660 Y0.4359  
G01 X-0.4859 Y0.4160  
G01 X-0.5141 Y0.4160  
G01 X-0.5340 Y0.4359  
G01 X-0.5340 Y0.4444  
G01 X-0.5678 Y0.4783  
G01 X-0.5717 Y0.4822  
G01 X-0.5748 Y0.4867  
G01 X-0.5769 Y0.4918  
G01 X-0.5780 Y0.4972  
G01 X-0.5780 Y0.6799  
G01 X-0.5840 Y0.6859  
G01 X-0.5840 Y0.7141  
G01 X-0.5641 Y0.7340  
G01 X-0.5359 Y0.7340  
G01 X-0.5160 Y0.7141  
G01 X-0.5160 Y0.6859  
G01 X-0.5220 Y0.6799  
G01 X-0.5220 Y0.5116  
G01 X-0.5111 Y0.5007  
G01 X-0.5082 Y0.5019  
G01 X-0.5028 Y0.5030  
G01 X-0.2950 Y0.5030  
G01 X-0.2950 Y0.5186  
G01 X-0.2686 Y0.5450  
G01 X-0.2314 Y0.5450  
G01 X-0.2144 Y0.5280  
G01 X-0.1856 Y0.5280  
G01 X-0.1686 Y0.5450  
G01 X-0.1314 Y0.5450  
G01 X-0.1050 Y0.5186  
G01 X-0.1050 Y0.4814  
G01 X-0.1220 Y0.4644  
G01 X-0.1220 Y0.4356  
G01 X-0.1050 Y0.4186  
G01 X-0.1050 Y0.3814  
G01 X-0.1220 Y0.3644  
G01 X-0.1220 Y0.3356  
G01 X-0.1050 Y0.3186  
G01 X-0.1050 Y0.3130  
G01 X-0.0623 Y0.2970  
G01 X-0.0618 Y0.2969  
G01 X-0.0597 Y0.2961  
G01 X-0.0576 Y0.2952  
G01 X-0.0572 Y0.2950  
G01 X-0.0567 Y0.2948  
G01 X-0.0548 Y0.2935  
G01 X-0.0529 Y0.2923  
G01 X-0.0525 Y0.2920  
G01 X-0.0522 Y0.2917  
G01 X-0.0505 Y0.2901  
G01 X-0.0489 Y0.2886  
G01 X-0.0486 Y0.2882  
G01 X-0.0483 Y0.2878  
G01 X-0.0470 Y0.2860  
G01 X-0.0457 Y0.2841  
G01 X-0.0455 Y0.2837  
G01 X-0.0452 Y0.2833  
G01 X-0.0443 Y0.2812  
G01 X-0.0434 Y0.2791  
G01 X-0.0433 Y0.2786  
G01 X-0.0431 Y0.2782  
G01 X-0.0426 Y0.2759  
G01 X-0.0421 Y0.2737  
G01 X-0.0421 Y0.2732  
G01 X-0.0420 Y0.2728  
G01 X-0.0420 Y0.2705  
G01 X-0.0419 Y0.2682  
G01 X-0.0420 Y0.2677  
G01 X-0.0420 Y0.1464  
G01 X-0.0419 Y0.1450  
G01 X-0.0420 Y0.1436  
G01 X-0.0420 Y0.1422  
G01 X-0.0423 Y0.1409  
G01 X-0.0424 Y0.1395  
G01 X-0.0428 Y0.1382  
G01 X-0.0431 Y0.1368  
G01 X-0.0436 Y0.1355  
G01 X-0.0440 Y0.1342  
G01 X-0.0447 Y0.1330  
G01 X-0.0452 Y0.1317  
G01 X-0.0460 Y0.1306  
G01 X-0.0466 Y0.1293  
G01 X-0.0475 Y0.1283  
G01 X-0.0483 Y0.1272  
G01 X-0.0492 Y0.1262  
G01 X-0.0501 Y0.1251  
G00 Z0.0500  
G00 X-0.1050 Y0.1814  
G01 Z-0.0040 F10    
G01 X-0.1314 Y0.1550  F20    
G01 X-0.1686 Y0.1550  
G01 X-0.1946 Y0.1810  
G01 X-0.2054 Y0.1810  
G01 X-0.2314 Y0.1550  
G01 X-0.2686 Y0.1550  
G01 X-0.2946 Y0.1810  
G01 X-0.5025 Y0.1810  
G01 X-0.5073 Y0.1823  
G01 X-0.5117 Y0.1848  
G01 X-0.5152 Y0.1883  
G01 X-0.5177 Y0.1927  
G01 X-0.5190 Y0.1975  
G01 X-0.5190 Y0.3209  
G01 X-0.5291 Y0.3310  
G01 X-0.7209 Y0.3310  
G01 X-0.7359 Y0.3160  
G01 X-0.7641 Y0.3160  
G01 X-0.7840 Y0.3359  
G01 X-0.7840 Y0.3567  
G01 X-1.2612 Y0.3658  
G01 X-1.3054 Y0.3129  
G01 X-1.3069 Y0.3110  
G01 X-1.3090 Y0.3095  
G01 X-1.3110 Y0.3081  
G01 X-1.3111 Y0.3080  
G01 X-1.3134 Y0.3072  
G01 X-1.3519 Y0.2928  
G01 X-1.3527 Y0.2923  
G01 X-1.3542 Y0.2919  
G01 X-1.3557 Y0.2913  
G01 X-1.3566 Y0.2912  
G01 X-1.3575 Y0.2910  
G01 X-1.3591 Y0.2910  
G01 X-1.3607 Y0.2908  
G01 X-1.3616 Y0.2910  
G01 X-1.5040 Y0.2910  
G01 X-1.5055 Y0.2908  
G01 X-1.5065 Y0.2910  
G01 X-1.5075 Y0.2910  
G01 X-1.5090 Y0.2914  
G01 X-1.6009 Y0.3059  
G01 X-1.6014 Y0.3059  
G01 X-1.6034 Y0.3063  
G01 X-1.6054 Y0.3066  
G01 X-1.6058 Y0.3068  
G01 X-1.6063 Y0.3069  
G01 X-1.6081 Y0.3078  
G01 X-1.6100 Y0.3087  
G01 X-1.6103 Y0.3089  
G01 X-1.6563 Y0.3319  
G01 X-1.6585 Y0.3330  
G01 X-1.6607 Y0.3341  
G01 X-1.6626 Y0.3358  
G01 X-1.6645 Y0.3374  
G01 X-1.6659 Y0.3396  
G01 X-1.6672 Y0.3416  
G01 X-1.7210 Y0.4237  
G01 X-1.7210 Y0.3891  
G01 X-1.7060 Y0.3741  
G01 X-1.7060 Y0.3459  
G01 X-1.7259 Y0.3260  
G01 X-1.7541 Y0.3260  
G01 X-1.7740 Y0.3459  
G01 X-1.7740 Y0.3741  
G01 X-1.7590 Y0.3891  
G01 X-1.7590 Y0.4293  
G01 X-1.7620 Y0.4682  
G01 X-1.7661 Y0.4699  
G01 X-1.7717 Y0.4736  
G01 X-1.7764 Y0.4783  
G01 X-1.7801 Y0.4839  
G01 X-1.7827 Y0.4901  
G01 X-1.7840 Y0.4967  
G01 X-1.7840 Y0.5033  
G01 X-1.7827 Y0.5099  
G01 X-1.7801 Y0.5161  
G01 X-1.7764 Y0.5217  
G01 X-1.7717 Y0.5264  
G01 X-1.7661 Y0.5301  
G01 X-1.7599 Y0.5327  
G01 X-1.7533 Y0.5340  
G01 X-1.7467 Y0.5340  
G01 X-1.7401 Y0.5327  
G01 X-1.7339 Y0.5301  
G01 X-1.7283 Y0.5264  
G01 X-1.7236 Y0.5217  
G01 X-1.7199 Y0.5161  
G01 X-1.7173 Y0.5099  
G01 X-1.7160 Y0.5033  
G01 X-1.7160 Y0.4967  
G01 X-1.7173 Y0.4901  
G01 X-1.7180 Y0.4884  
G01 X-1.6369 Y0.3647  
G01 X-1.5941 Y0.3433  
G01 X-1.5035 Y0.3290  
G01 X-1.3634 Y0.3290  
G01 X-1.3314 Y0.3410  
G01 X-1.2855 Y0.3961  
G01 X-1.2850 Y0.3970  
G01 X-1.2839 Y0.3980  
G01 X-1.2830 Y0.3991  
G01 X-1.2821 Y0.3997  
G01 X-1.2814 Y0.4004  
G01 X-1.2801 Y0.4011  
G01 X-1.2789 Y0.4020  
G01 X-1.2779 Y0.4023  
G01 X-1.2770 Y0.4028  
G01 X-1.2756 Y0.4032  
G01 X-1.2742 Y0.4037  
G01 X-1.2732 Y0.4038  
G01 X-1.2721 Y0.4040  
G01 X-1.2707 Y0.4040  
G01 X-1.2692 Y0.4041  
G01 X-1.2682 Y0.4040  
G01 X-0.7498 Y0.3940  
G01 X-0.7475 Y0.3940  
G01 X-0.7473 Y0.3940  
G01 X-0.7471 Y0.3939  
G01 X-0.7449 Y0.3933  
G01 X-0.7427 Y0.3927  
G01 X-0.7425 Y0.3926  
G01 X-0.7423 Y0.3926  
G01 X-0.7403 Y0.3914  
G01 X-0.7383 Y0.3902  
G01 X-0.7382 Y0.3901  
G01 X-0.7380 Y0.3900  
G01 X-0.7364 Y0.3883  
G01 X-0.7348 Y0.3867  
G01 X-0.7347 Y0.3865  
G01 X-0.7346 Y0.3864  
G01 X-0.7335 Y0.3843  
G01 X-0.7323 Y0.3823  
G01 X-0.7322 Y0.3822  
G01 X-0.7322 Y0.3820  
G01 X-0.7316 Y0.3797  
G01 X-0.7209 Y0.3690  
G01 X-0.5291 Y0.3690  
G01 X-0.5141 Y0.3840  
G01 X-0.4859 Y0.3840  
G01 X-0.4660 Y0.3641  
G01 X-0.4660 Y0.3359  
G01 X-0.4810 Y0.3209  
G01 X-0.4810 Y0.2190  
G01 X-0.2946 Y0.2190  
G01 X-0.2686 Y0.2450  
G01 X-0.2314 Y0.2450  
G01 X-0.2054 Y0.2190  
G01 X-0.1946 Y0.2190  
G01 X-0.1686 Y0.2450  
G01 X-0.1314 Y0.2450  
G01 X-0.1050 Y0.2186  
G01 X-0.1050 Y0.1814  
G00 Z0.0500  
G00 X-0.1050 Y0.5814  
G01 Z-0.0040 F10    
G01 X-0.1314 Y0.5550  F20    
G01 X-0.1686 Y0.5550  
G01 X-0.1856 Y0.5720  
G01 X-0.2144 Y0.5720  
G01 X-0.2314 Y0.5550  
G01 X-0.2686 Y0.5550  
G01 X-0.2856 Y0.5720  
G01 X-0.4528 Y0.5720  
G01 X-0.4582 Y0.5731  
G01 X-0.4633 Y0.5752  
G01 X-0.4678 Y0.5783  
G01 X-0.4717 Y0.5822  
G01 X-0.4748 Y0.5867  
G01 X-0.4769 Y0.5918  
G01 X-0.4780 Y0.5972  
G01 X-0.4780 Y0.8324  
G01 X-0.5160 Y0.7944  
G01 X-0.5160 Y0.7859  
G01 X-0.5359 Y0.7660  
G01 X-0.5444 Y0.7660  
G01 X-0.5970 Y0.7134  
G01 X-0.5970 Y0.4722  
G01 X-0.5981 Y0.4668  
G01 X-0.6002 Y0.4617  
G01 X-0.6033 Y0.4572  
G01 X-0.6072 Y0.4533  
G01 X-0.6117 Y0.4502  
G01 X-0.6168 Y0.4481  
G01 X-0.6222 Y0.4470  
G01 X-0.9778 Y0.4470  
G01 X-0.9832 Y0.4481  
G01 X-0.9883 Y0.4502  
G01 X-0.9928 Y0.4533  
G01 X-0.9967 Y0.4572  
G01 X-1.1939 Y0.6543  
G01 X-1.2151 Y0.6720  
G01 X-1.2299 Y0.6720  
G01 X-1.2359 Y0.6660  
G01 X-1.2641 Y0.6660  
G01 X-1.2822 Y0.6841  
G01 X-1.4107 Y0.7441  
G01 X-1.4120 Y0.7446  
G01 X-1.4132 Y0.7452  
G01 X-1.4143 Y0.7458  
G01 X-1.4155 Y0.7467  
G01 X-1.4478 Y0.7660  
G01 X-1.4533 Y0.7660  
G01 X-1.4599 Y0.7673  
G01 X-1.4661 Y0.7699  
G01 X-1.4717 Y0.7736  
G01 X-1.4764 Y0.7783  
G01 X-1.4801 Y0.7839  
G01 X-1.4827 Y0.7901  
G01 X-1.4840 Y0.7967  
G01 X-1.4840 Y0.8033  
G01 X-1.4827 Y0.8099  
G01 X-1.4801 Y0.8161  
G01 X-1.4764 Y0.8217  
G01 X-1.4717 Y0.8264  
G01 X-1.4661 Y0.8301  
G01 X-1.4599 Y0.8327  
G01 X-1.4533 Y0.8340  
G01 X-1.4467 Y0.8340  
G01 X-1.4401 Y0.8327  
G01 X-1.4339 Y0.8301  
G01 X-1.4283 Y0.8264  
G01 X-1.4236 Y0.8217  
G01 X-1.4199 Y0.8161  
G01 X-1.4190 Y0.8141  
G01 X-1.3868 Y0.7948  
G01 X-1.2566 Y0.7340  
G01 X-1.2359 Y0.7340  
G01 X-1.2299 Y0.7280  
G01 X-1.2063 Y0.7280  
G01 X-1.2048 Y0.7281  
G01 X-1.2035 Y0.7280  
G01 X-1.2022 Y0.7280  
G01 X-1.2008 Y0.7277  
G01 X-1.1993 Y0.7276  
G01 X-1.1981 Y0.7272  
G01 X-1.1968 Y0.7269  
G01 X-1.1955 Y0.7264  
G01 X-1.1940 Y0.7259  
G01 X-1.1929 Y0.7253  
G01 X-1.1917 Y0.7248  
G01 X-1.1905 Y0.7240  
G01 X-1.1892 Y0.7233  
G01 X-1.1882 Y0.7225  
G01 X-1.1872 Y0.7217  
G01 X-1.1861 Y0.7207  
G01 X-1.1582 Y0.6975  
G01 X-1.1572 Y0.6967  
G01 X-1.1561 Y0.6957  
G01 X-1.1550 Y0.6947  
G01 X-1.1542 Y0.6938  
G01 X-0.9634 Y0.5030  
G01 X-0.6530 Y0.5030  
G01 X-0.6530 Y0.7278  
G01 X-0.6519 Y0.7332  
G01 X-0.6498 Y0.7383  
G01 X-0.6467 Y0.7428  
G01 X-0.5840 Y0.8056  
G01 X-0.5840 Y0.8141  
G01 X-0.5641 Y0.8340  
G01 X-0.5556 Y0.8340  
G01 X-0.4842 Y0.9053  
G01 X-0.4803 Y0.9092  
G01 X-0.4780 Y0.9116  
G01 X-0.4780 Y0.9799  
G01 X-0.4840 Y0.9859  
G01 X-0.4840 Y1.0141  
G01 X-0.4641 Y1.0340  
G01 X-0.4359 Y1.0340  
G01 X-0.4160 Y1.0141  
G01 X-0.4160 Y0.9859  
G01 X-0.4220 Y0.9799  
G01 X-0.4220 Y0.8972  
G01 X-0.4231 Y0.8918  
G01 X-0.4249 Y0.8875  
G01 X-0.4231 Y0.8832  
G01 X-0.4220 Y0.8778  
G01 X-0.4220 Y0.6280  
G01 X-0.2856 Y0.6280  
G01 X-0.2686 Y0.6450  
G01 X-0.2314 Y0.6450  
G01 X-0.2144 Y0.6280  
G01 X-0.1856 Y0.6280  
G01 X-0.1686 Y0.6450  
G01 X-0.1314 Y0.6450  
G01 X-0.1050 Y0.6186  
G01 X-0.1050 Y0.5814  
G00 Z0.0500  
G00 X-0.1050 Y0.6814  
G01 Z-0.0040 F10    
G01 X-0.1314 Y0.6550  F20    
G01 X-0.1686 Y0.6550  
G01 X-0.1946 Y0.6810  
G01 X-0.2054 Y0.6810  
G01 X-0.2314 Y0.6550  
G01 X-0.2686 Y0.6550  
G01 X-0.2950 Y0.6814  
G01 X-0.2950 Y0.7186  
G01 X-0.2686 Y0.7450  
G01 X-0.2314 Y0.7450  
G01 X-0.2054 Y0.7190  
G01 X-0.1946 Y0.7190  
G01 X-0.1686 Y0.7450  
G01 X-0.1314 Y0.7450  
G01 X-0.1050 Y0.7186  
G01 X-0.1050 Y0.6814  
G00 Z0.0500  
G00 X-0.1050 Y0.7814  
G01 Z-0.0040 F10    
G01 X-0.1314 Y0.7550  F20    
G01 X-0.1686 Y0.7550  
G01 X-0.1950 Y0.7814  
G01 X-0.1950 Y0.8186  
G01 X-0.1686 Y0.8450  
G01 X-0.1314 Y0.8450  
G01 X-0.1050 Y0.8186  
G01 X-0.1050 Y0.7814  
G00 Z0.0500  
G00 X-0.2050 Y0.7814  
G01 Z-0.0040 F10    
G01 X-0.2314 Y0.7550  F20    
G01 X-0.2686 Y0.7550  
G01 X-0.2950 Y0.7814  
G01 X-0.2950 Y0.8186  
G01 X-0.2686 Y0.8450  
G01 X-0.2314 Y0.8450  
G01 X-0.2050 Y0.8186  
G01 X-0.2050 Y0.7814  
G00 Z0.0500  
G00 X-0.2050 Y0.8814  
G01 Z-0.0040 F10    
G01 X-0.2314 Y0.8550  F20    
G01 X-0.2686 Y0.8550  
G01 X-0.2950 Y0.8814  
G01 X-0.2950 Y0.9186  
G01 X-0.2686 Y0.9450  
G01 X-0.2314 Y0.9450  
G01 X-0.2050 Y0.9186  
G01 X-0.2050 Y0.8814  
G00 Z0.0500  
G00 X-0.1950 Y0.8814  
G01 Z-0.0040 F10    
G01 X-0.1950 Y0.9186  F20    
G01 X-0.1686 Y0.9450  
G01 X-0.1314 Y0.9450  
G01 X-0.1050 Y0.9186  
G01 X-0.1050 Y0.8814  
G01 X-0.1314 Y0.8550  
G01 X-0.1686 Y0.8550  
G01 X-0.1950 Y0.8814  
G00 Z0.0500  
G00 X-0.6348 Y0.9383  
G01 Z-0.0040 F10    
G01 X-0.6383 Y0.9348  F20    
G01 X-0.6427 Y0.9323  
G01 X-0.6475 Y0.9310  
G01 X-0.7709 Y0.9310  
G01 X-0.7859 Y0.9160  
G01 X-0.8141 Y0.9160  
G01 X-0.8340 Y0.9359  
G01 X-0.8340 Y0.9641  
G01 X-0.8141 Y0.9840  
G01 X-0.7859 Y0.9840  
G01 X-0.7709 Y0.9690  
G01 X-0.6690 Y0.9690  
G01 X-0.6690 Y0.9709  
G01 X-0.6840 Y0.9859  
G01 X-0.6840 Y1.0141  
G01 X-0.6641 Y1.0340  
G01 X-0.6359 Y1.0340  
G01 X-0.6160 Y1.0141  
G01 X-0.6160 Y0.9859  
G01 X-0.6310 Y0.9709  
G01 X-0.6310 Y0.9475  
G01 X-0.6323 Y0.9427  
G01 X-0.6348 Y0.9383  
G00 Z0.0500  
G00 X-0.8355 Y0.9125  
G01 Z-0.0040 F10    
G01 X-0.8352 Y0.9121  F20    
G01 X-0.8348 Y0.9117  
G01 X-0.8338 Y0.9100  
G01 X-0.8327 Y0.9083  
G01 X-0.8326 Y0.9078  
G01 X-0.8323 Y0.9073  
G01 X-0.8318 Y0.9054  
G01 X-0.8312 Y0.9036  
G01 X-0.8311 Y0.9030  
G01 X-0.8310 Y0.9025  
G01 X-0.8310 Y0.9005  
G01 X-0.8211 Y0.7274  
G01 X-0.8124 Y0.6840  
G01 X-0.8109 Y0.6840  
G01 X-0.7910 Y0.6641  
G01 X-0.7910 Y0.6359  
G01 X-0.8109 Y0.6160  
G01 X-0.8391 Y0.6160  
G01 X-0.8590 Y0.6359  
G01 X-0.8590 Y0.6641  
G01 X-0.8492 Y0.6739  
G01 X-0.8584 Y0.7201  
G01 X-0.8588 Y0.7214  
G01 X-0.8589 Y0.7226  
G01 X-0.8591 Y0.7237  
G01 X-0.8590 Y0.7251  
G01 X-0.8686 Y0.8917  
G01 X-0.8929 Y0.9160  
G01 X-0.9141 Y0.9160  
G01 X-0.9340 Y0.9359  
G01 X-0.9340 Y0.9641  
G01 X-0.9302 Y0.9679  
G01 X-0.9517 Y1.0110  
G01 X-1.9079 Y1.0110  
G01 X-1.9710 Y0.9563  
G01 X-1.9710 Y0.0733  
G01 X-1.2446 Y0.0440  
G01 X-1.1509 Y0.0440  
G01 X-1.0493 Y0.1132  
G01 X-1.0473 Y0.1196  
G01 X-1.0436 Y0.1267  
G01 X-1.0389 Y0.1332  
G01 X-1.0332 Y0.1389  
G01 X-1.0267 Y0.1436  
G01 X-1.0196 Y0.1473  
G01 X-1.0119 Y0.1497  
G01 X-1.0040 Y0.1510  
G01 X-0.9960 Y0.1510  
G01 X-0.9881 Y0.1497  
G01 X-0.9804 Y0.1473  
G01 X-0.9733 Y0.1436  
G01 X-0.9668 Y0.1389  
G01 X-0.9611 Y0.1332  
G01 X-0.9564 Y0.1267  
G01 X-0.9527 Y0.1196  
G01 X-0.9503 Y0.1119  
G01 X-0.9490 Y0.1040  
G01 X-0.9490 Y0.0960  
G01 X-0.9503 Y0.0881  
G01 X-0.9527 Y0.0804  
G01 X-0.9564 Y0.0733  
G01 X-0.9611 Y0.0668  
G01 X-0.9668 Y0.0611  
G01 X-0.9733 Y0.0564  
G01 X-0.9804 Y0.0527  
G01 X-0.9881 Y0.0503  
G01 X-0.9960 Y0.0490  
G01 X-1.0040 Y0.0490  
G01 X-1.0119 Y0.0503  
G01 X-1.0196 Y0.0527  
G01 X-1.0267 Y0.0564  
G01 X-1.0332 Y0.0611  
G01 X-1.0389 Y0.0668  
G01 X-1.0426 Y0.0718  
G01 X-1.1328 Y0.0103  
G01 X-1.1333 Y0.0098  
G01 X-1.1349 Y0.0089  
G01 X-1.1364 Y0.0079  
G01 X-1.1370 Y0.0077  
G01 X-1.1377 Y0.0073  
G01 X-1.1394 Y0.0068  
G01 X-1.1411 Y0.0062  
G01 X-1.1418 Y0.0062  
G01 X-1.1425 Y0.0060  
G01 X-1.1443 Y0.0060  
G01 X-1.1461 Y0.0059  
G01 X-1.1468 Y0.0060  
G01 X-1.2429 Y0.0060  
G01 X-1.2433 Y0.0059  
G01 X-1.2454 Y0.0060  
G01 X-1.2475 Y0.0060  
G01 X-1.2479 Y0.0061  
G01 X-1.9904 Y0.0360  
G01 X-1.9925 Y0.0360  
G01 X-1.9929 Y0.0361  
G01 X-1.9933 Y0.0361  
G01 X-1.9953 Y0.0367  
G01 X-1.9973 Y0.0373  
G01 X-1.9977 Y0.0375  
G01 X-1.9980 Y0.0376  
G01 X-1.9998 Y0.0387  
G01 X-2.0017 Y0.0398  
G01 X-2.0019 Y0.0401  
G01 X-2.0023 Y0.0403  
G01 X-2.0037 Y0.0418  
G01 X-2.0052 Y0.0433  
G01 X-2.0054 Y0.0437  
G01 X-2.0057 Y0.0440  
G01 X-2.0066 Y0.0458  
G01 X-2.0077 Y0.0477  
G01 X-2.0078 Y0.0480  
G01 X-2.0080 Y0.0484  
G01 X-2.0085 Y0.0505  
G01 X-2.0090 Y0.0525  
G01 X-2.0090 Y0.0529  
G01 X-2.0091 Y0.0533  
G01 X-2.0090 Y0.0554  
G01 X-2.0090 Y0.9632  
G01 X-2.0091 Y0.9639  
G01 X-2.0090 Y0.9657  
G01 X-2.0090 Y0.9675  
G01 X-2.0088 Y0.9682  
G01 X-2.0088 Y0.9688  
G01 X-2.0082 Y0.9706  
G01 X-2.0077 Y0.9723  
G01 X-2.0074 Y0.9729  
G01 X-2.0071 Y0.9736  
G01 X-2.0061 Y0.9751  
G01 X-2.0052 Y0.9767  
G01 X-2.0047 Y0.9772  
G01 X-2.0043 Y0.9777  
G01 X-2.0030 Y0.9789  
G01 X-2.0017 Y0.9802  
G01 X-2.0011 Y0.9805  
G01 X-1.9280 Y1.0439  
G01 X-1.9267 Y1.0452  
G01 X-1.9261 Y1.0455  
G01 X-1.9256 Y1.0460  
G01 X-1.9239 Y1.0468  
G01 X-1.9223 Y1.0477  
G01 X-1.9217 Y1.0479  
G01 X-1.9211 Y1.0482  
G01 X-1.9193 Y1.0485  
G01 X-1.9175 Y1.0490  
G01 X-1.9168 Y1.0490  
G01 X-1.9161 Y1.0491  
G01 X-1.9143 Y1.0490  
G01 X-0.9419 Y1.0490  
G01 X-0.9414 Y1.0491  
G01 X-0.9394 Y1.0490  
G01 X-0.9375 Y1.0490  
G01 X-0.9369 Y1.0489  
G01 X-0.9364 Y1.0488  
G01 X-0.9345 Y1.0482  
G01 X-0.9327 Y1.0477  
G01 X-0.9322 Y1.0474  
G01 X-0.9316 Y1.0472  
G01 X-0.9300 Y1.0462  
G01 X-0.9283 Y1.0452  
G01 X-0.9279 Y1.0448  
G01 X-0.9274 Y1.0445  
G01 X-0.9262 Y1.0430  
G01 X-0.9248 Y1.0417  
G01 X-0.9245 Y1.0412  
G01 X-0.9241 Y1.0407  
G01 X-0.9233 Y1.0390  
G01 X-0.9223 Y1.0373  
G01 X-0.9221 Y1.0368  
G01 X-0.8958 Y0.9840  
G01 X-0.8859 Y0.9840  
G01 X-0.8660 Y0.9641  
G01 X-0.8660 Y0.9429  
G01 X-0.8369 Y0.9138  
G01 X-0.8355 Y0.9125  
G00 Z0.0500  
G00 X-0.9660 Y0.9359  
G01 Z-0.0040 F10    
G01 X-0.9780 Y0.9239  F20    
G01 X-0.9715 Y0.8659  
G01 X-0.8973 Y0.7340  
G01 X-0.8859 Y0.7340  
G01 X-0.8660 Y0.7141  
G01 X-0.8660 Y0.6859  
G01 X-0.8859 Y0.6660  
G01 X-0.9141 Y0.6660  
G01 X-0.9340 Y0.6859  
G01 X-0.9340 Y0.7141  
G01 X-0.9313 Y0.7168  
G01 X-1.0060 Y0.8497  
G01 X-1.0068 Y0.8508  
G01 X-1.0072 Y0.8518  
G01 X-1.0078 Y0.8529  
G01 X-1.0081 Y0.8542  
G01 X-1.0086 Y0.8554  
G01 X-1.0087 Y0.8566  
G01 X-1.0090 Y0.8577  
G01 X-1.0090 Y0.8591  
G01 X-1.0155 Y0.9174  
G01 X-1.0340 Y0.9359  
G01 X-1.0340 Y0.9389  
G01 X-1.0423 Y0.9410  
G01 X-1.5802 Y0.9410  
G01 X-1.6063 Y0.9044  
G01 X-1.6060 Y0.9041  
G01 X-1.6060 Y0.8759  
G01 X-1.6245 Y0.8574  
G01 X-1.6280 Y0.8261  
G01 X-1.6236 Y0.8217  
G01 X-1.6199 Y0.8161  
G01 X-1.6173 Y0.8099  
G01 X-1.6160 Y0.8033  
G01 X-1.6160 Y0.7967  
G01 X-1.6173 Y0.7901  
G01 X-1.6199 Y0.7839  
G01 X-1.6236 Y0.7783  
G01 X-1.6283 Y0.7736  
G01 X-1.6339 Y0.7699  
G01 X-1.6401 Y0.7673  
G01 X-1.6467 Y0.7660  
G01 X-1.6533 Y0.7660  
G01 X-1.6599 Y0.7673  
G01 X-1.6661 Y0.7699  
G01 X-1.6717 Y0.7736  
G01 X-1.6764 Y0.7783  
G01 X-1.6801 Y0.7839  
G01 X-1.6827 Y0.7901  
G01 X-1.6840 Y0.7967  
G01 X-1.6840 Y0.8033  
G01 X-1.6827 Y0.8099  
G01 X-1.6801 Y0.8161  
G01 X-1.6764 Y0.8217  
G01 X-1.6717 Y0.8264  
G01 X-1.6661 Y0.8301  
G01 X-1.6658 Y0.8303  
G01 X-1.6620 Y0.8639  
G01 X-1.6740 Y0.8759  
G01 X-1.6740 Y0.9041  
G01 X-1.6541 Y0.9240  
G01 X-1.6391 Y0.9240  
G01 X-1.6060 Y0.9703  
G01 X-1.6052 Y0.9717  
G01 X-1.6045 Y0.9723  
G01 X-1.6040 Y0.9731  
G01 X-1.6028 Y0.9741  
G01 X-1.6017 Y0.9752  
G01 X-1.6009 Y0.9757  
G01 X-1.6001 Y0.9763  
G01 X-1.5987 Y0.9769  
G01 X-1.5973 Y0.9777  
G01 X-1.5964 Y0.9779  
G01 X-1.5956 Y0.9783  
G01 X-1.5940 Y0.9786  
G01 X-1.5925 Y0.9790  
G01 X-1.5916 Y0.9790  
G01 X-1.5907 Y0.9792  
G01 X-1.5891 Y0.9790  
G01 X-1.0402 Y0.9790  
G01 X-1.0378 Y0.9790  
G01 X-1.0377 Y0.9790  
G01 X-1.0375 Y0.9790  
G01 X-1.0352 Y0.9784  
G01 X-1.0228 Y0.9753  
G01 X-1.0141 Y0.9840  
G01 X-0.9859 Y0.9840  
G01 X-0.9660 Y0.9641  
G01 X-0.9660 Y0.9359  
G00 Z0.0500  
G00 X-1.0991 Y0.9105  
G01 Z-0.0040 F10    
G01 X-1.0695 Y0.8809  F20    
G01 X-1.0695 Y0.8391  
G01 X-1.0957 Y0.8129  
G01 X-1.0911 Y0.7724  
G01 X-1.0856 Y0.7337  
G01 X-1.0660 Y0.7141  
G01 X-1.0660 Y0.6859  
G01 X-1.0859 Y0.6660  
G01 X-1.1141 Y0.6660  
G01 X-1.1340 Y0.6859  
G01 X-1.1340 Y0.7141  
G01 X-1.1228 Y0.7253  
G01 X-1.1285 Y0.7651  
G01 X-1.1286 Y0.7654  
G01 X-1.1289 Y0.7676  
G01 X-1.1292 Y0.7698  
G01 X-1.1291 Y0.7701  
G01 X-1.1335 Y0.8095  
G01 X-1.1409 Y0.8095  
G01 X-1.1705 Y0.8391  
G01 X-1.1705 Y0.8465  
G01 X-1.2119 Y0.8511  
G01 X-1.2934 Y0.8585  
G01 X-1.3059 Y0.8460  
G01 X-1.3341 Y0.8460  
G01 X-1.3540 Y0.8659  
G01 X-1.3540 Y0.8941  
G01 X-1.3341 Y0.9140  
G01 X-1.3059 Y0.9140  
G01 X-1.2881 Y0.8962  
G01 X-1.2106 Y0.8891  
G01 X-1.2104 Y0.8892  
G01 X-1.2081 Y0.8889  
G01 X-1.2058 Y0.8887  
G01 X-1.2056 Y0.8886  
G01 X-1.1671 Y0.8843  
G01 X-1.1409 Y0.9105  
G01 X-1.0991 Y0.9105  
G00 Z0.0500  
G00 X-1.4860 Y0.8941  
G01 Z-0.0040 F10    
G01 X-1.4860 Y0.8659  F20    
G01 X-1.5056 Y0.8463  
G01 X-1.5203 Y0.8168  
G01 X-1.5199 Y0.8161  
G01 X-1.5173 Y0.8099  
G01 X-1.5160 Y0.8033  
G01 X-1.5160 Y0.7967  
G01 X-1.5173 Y0.7901  
G01 X-1.5199 Y0.7839  
G01 X-1.5236 Y0.7783  
G01 X-1.5283 Y0.7736  
G01 X-1.5339 Y0.7699  
G01 X-1.5401 Y0.7673  
G01 X-1.5467 Y0.7660  
G01 X-1.5533 Y0.7660  
G01 X-1.5599 Y0.7673  
G01 X-1.5661 Y0.7699  
G01 X-1.5717 Y0.7736  
G01 X-1.5764 Y0.7783  
G01 X-1.5801 Y0.7839  
G01 X-1.5827 Y0.7901  
G01 X-1.5840 Y0.7967  
G01 X-1.5840 Y0.8033  
G01 X-1.5827 Y0.8099  
G01 X-1.5801 Y0.8161  
G01 X-1.5764 Y0.8217  
G01 X-1.5717 Y0.8264  
G01 X-1.5661 Y0.8301  
G01 X-1.5599 Y0.8327  
G01 X-1.5543 Y0.8338  
G01 X-1.5435 Y0.8554  
G01 X-1.5540 Y0.8659  
G01 X-1.5540 Y0.8941  
G01 X-1.5341 Y0.9140  
G01 X-1.5059 Y0.9140  
G01 X-1.4860 Y0.8941  
G00 Z0.0500  
G00 X-1.8060 Y0.9041  
G01 Z-0.0040 F10    
G01 X-1.8060 Y0.8759  F20    
G01 X-1.8132 Y0.8688  
G01 X-1.8066 Y0.7835  
G01 X-1.5565 Y0.5334  
G01 X-1.5533 Y0.5340  
G01 X-1.5467 Y0.5340  
G01 X-1.5401 Y0.5327  
G01 X-1.5339 Y0.5301  
G01 X-1.5283 Y0.5264  
G01 X-1.5236 Y0.5217  
G01 X-1.5199 Y0.5161  
G01 X-1.5173 Y0.5099  
G01 X-1.5160 Y0.5033  
G01 X-1.5160 Y0.4967  
G01 X-1.5173 Y0.4901  
G01 X-1.5199 Y0.4839  
G01 X-1.5236 Y0.4783  
G01 X-1.5283 Y0.4736  
G01 X-1.5310 Y0.4718  
G01 X-1.5310 Y0.4291  
G01 X-1.5160 Y0.4141  
G01 X-1.5160 Y0.3859  
G01 X-1.5359 Y0.3660  
G01 X-1.5641 Y0.3660  
G01 X-1.5840 Y0.3859  
G01 X-1.5840 Y0.4141  
G01 X-1.5690 Y0.4291  
G01 X-1.5690 Y0.4718  
G01 X-1.5717 Y0.4736  
G01 X-1.5764 Y0.4783  
G01 X-1.5801 Y0.4839  
G01 X-1.5827 Y0.4901  
G01 X-1.5840 Y0.4967  
G01 X-1.5840 Y0.5033  
G01 X-1.5834 Y0.5065  
G01 X-1.8379 Y0.7610  
G01 X-1.8393 Y0.7622  
G01 X-1.8397 Y0.7628  
G01 X-1.8402 Y0.7633  
G01 X-1.8411 Y0.7649  
G01 X-1.8421 Y0.7663  
G01 X-1.8423 Y0.7670  
G01 X-1.8427 Y0.7677  
G01 X-1.8432 Y0.7694  
G01 X-1.8438 Y0.7710  
G01 X-1.8438 Y0.7718  
G01 X-1.8440 Y0.7725  
G01 X-1.8440 Y0.7743  
G01 X-1.8503 Y0.8560  
G01 X-1.8541 Y0.8560  
G01 X-1.8740 Y0.8759  
G01 X-1.8740 Y0.9041  
G01 X-1.8541 Y0.9240  
G01 X-1.8369 Y0.9240  
G01 X-1.8364 Y0.9241  
G01 X-1.8352 Y0.9240  
G01 X-1.8340 Y0.9241  
G01 X-1.8332 Y0.9240  
G01 X-1.8259 Y0.9240  
G01 X-1.8060 Y0.9041  
G00 Z0.0500  
G00 X-1.4764 Y0.5217  
G01 Z-0.0040 F10    
G01 X-1.4717 Y0.5264  F20    
G01 X-1.4661 Y0.5301  
G01 X-1.4599 Y0.5327  
G01 X-1.4533 Y0.5340  
G01 X-1.4467 Y0.5340  
G01 X-1.4401 Y0.5327  
G01 X-1.4339 Y0.5301  
G01 X-1.4283 Y0.5264  
G01 X-1.4236 Y0.5217  
G01 X-1.4218 Y0.5190  
G01 X-1.4019 Y0.5190  
G01 X-1.4014 Y0.5191  
G01 X-1.3994 Y0.5190  
G01 X-1.2791 Y0.5190  
G01 X-1.2641 Y0.5340  
G01 X-1.2359 Y0.5340  
G01 X-1.2160 Y0.5141  
G01 X-1.2160 Y0.4859  
G01 X-1.2359 Y0.4660  
G01 X-1.2641 Y0.4660  
G01 X-1.2791 Y0.4810  
G01 X-1.3693 Y0.4810  
G01 X-1.3458 Y0.4340  
G01 X-1.3359 Y0.4340  
G01 X-1.3160 Y0.4141  
G01 X-1.3160 Y0.3859  
G01 X-1.3359 Y0.3660  
G01 X-1.3641 Y0.3660  
G01 X-1.3840 Y0.3859  
G01 X-1.3840 Y0.4141  
G01 X-1.3802 Y0.4179  
G01 X-1.4117 Y0.4810  
G01 X-1.4218 Y0.4810  
G01 X-1.4236 Y0.4783  
G01 X-1.4283 Y0.4736  
G01 X-1.4339 Y0.4699  
G01 X-1.4401 Y0.4673  
G01 X-1.4467 Y0.4660  
G01 X-1.4533 Y0.4660  
G01 X-1.4599 Y0.4673  
G01 X-1.4661 Y0.4699  
G01 X-1.4717 Y0.4736  
G01 X-1.4764 Y0.4783  
G01 X-1.4801 Y0.4839  
G01 X-1.4827 Y0.4901  
G01 X-1.4840 Y0.4967  
G01 X-1.4840 Y0.5033  
G01 X-1.4827 Y0.5099  
G01 X-1.4801 Y0.5161  
G01 X-1.4764 Y0.5217  
G00 Z0.0500  
G00 X-1.2840 Y0.3141  
G01 Z-0.0040 F10    
G01 X-1.2641 Y0.3340  F20    
G01 X-1.2359 Y0.3340  
G01 X-1.2209 Y0.3190  
G01 X-1.1505 Y0.3190  
G01 X-1.1505 Y0.3209  
G01 X-1.1209 Y0.3505  
G01 X-1.0791 Y0.3505  
G01 X-1.0495 Y0.3209  
G01 X-1.0495 Y0.2791  
G01 X-1.0791 Y0.2495  
G01 X-1.1209 Y0.2495  
G01 X-1.1505 Y0.2791  
G01 X-1.1505 Y0.2810  
G01 X-1.2209 Y0.2810  
G01 X-1.2359 Y0.2660  
G01 X-1.2641 Y0.2660  
G01 X-1.2840 Y0.2859  
G01 X-1.2840 Y0.3141  
G00 Z0.0500  
G00 X-1.2358 Y0.1332  
G01 Z-0.0040 F10    
G01 X-1.2301 Y0.1389  F20    
G01 X-1.2236 Y0.1436  
G01 X-1.2164 Y0.1473  
G01 X-1.2088 Y0.1497  
G01 X-1.2009 Y0.1510  
G01 X-1.1928 Y0.1510  
G01 X-1.1849 Y0.1497  
G01 X-1.1773 Y0.1473  
G01 X-1.1701 Y0.1436  
G01 X-1.1636 Y0.1389  
G01 X-1.1579 Y0.1332  
G01 X-1.1532 Y0.1267  
G01 X-1.1496 Y0.1196  
G01 X-1.1471 Y0.1119  
G01 X-1.1459 Y0.1040  
G01 X-1.1459 Y0.0960  
G01 X-1.1471 Y0.0881  
G01 X-1.1496 Y0.0804  
G01 X-1.1532 Y0.0733  
G01 X-1.1579 Y0.0668  
G01 X-1.1636 Y0.0611  
G01 X-1.1701 Y0.0564  
G01 X-1.1773 Y0.0527  
G01 X-1.1849 Y0.0503  
G01 X-1.1928 Y0.0490  
G01 X-1.2009 Y0.0490  
G01 X-1.2088 Y0.0503  
G01 X-1.2164 Y0.0527  
G01 X-1.2236 Y0.0564  
G01 X-1.2301 Y0.0611  
G01 X-1.2358 Y0.0668  
G01 X-1.2405 Y0.0733  
G01 X-1.2441 Y0.0804  
G01 X-1.2454 Y0.0845  
G01 X-1.7012 Y0.1174  
G01 X-1.7291 Y0.0895  
G01 X-1.7709 Y0.0895  
G01 X-1.8005 Y0.1191  
G01 X-1.8005 Y0.1609  
G01 X-1.7709 Y0.1905  
G01 X-1.7291 Y0.1905  
G01 X-1.6995 Y0.1609  
G01 X-1.6995 Y0.1554  
G01 X-1.2427 Y0.1224  
G01 X-1.2405 Y0.1267  
G01 X-1.2358 Y0.1332  
G00 Z0.0500  
G00 X-0.9340 Y0.5859  
G01 Z-0.0040 F10    
G01 X-0.9340 Y0.6141  F20    
G01 X-0.9141 Y0.6340  
G01 X-0.8859 Y0.6340  
G01 X-0.8660 Y0.6141  
G01 X-0.8660 Y0.5982  
G01 X-0.8522 Y0.5879  
G01 X-0.7743 Y0.5737  
G01 X-0.7641 Y0.5840  
G01 X-0.7359 Y0.5840  
G01 X-0.7160 Y0.5641  
G01 X-0.7160 Y0.5359  
G01 X-0.7359 Y0.5160  
G01 X-0.7641 Y0.5160  
G01 X-0.7840 Y0.5359  
G01 X-0.7840 Y0.5369  
G01 X-0.8628 Y0.5512  
G01 X-0.8648 Y0.5514  
G01 X-0.8653 Y0.5517  
G01 X-0.8659 Y0.5518  
G01 X-0.8676 Y0.5526  
G01 X-0.8694 Y0.5533  
G01 X-0.8699 Y0.5536  
G01 X-0.8704 Y0.5539  
G01 X-0.8719 Y0.5551  
G01 X-0.8863 Y0.5660  
G01 X-0.9141 Y0.5660  
G01 X-0.9340 Y0.5859  
G00 Z0.0500  
G00 X-0.0494 Y0.1244  
G01 Z-0.0040 F10    
G01 X-0.0505 Y0.1235  F20    
G01 X-0.0515 Y0.1225  
G01 X-0.0527 Y0.1217  
G01 X-0.1055 Y0.0785  
G01 X-0.1065 Y0.0775  
G01 X-0.1077 Y0.0767  
G01 X-0.1088 Y0.0757  
G01 X-0.1101 Y0.0751  
G01 X-0.1113 Y0.0743  
G01 X-0.1126 Y0.0737  
G01 X-0.1139 Y0.0731  
G01 X-0.1152 Y0.0727  
G01 X-0.1165 Y0.0721  
G01 X-0.1180 Y0.0718  
G01 X-0.1194 Y0.0714  
G01 X-0.1208 Y0.0713  
G01 X-0.1221 Y0.0710  
G01 X-0.1236 Y0.0710  
G01 X-0.1250 Y0.0709  
G01 X-0.1264 Y0.0710  
G01 X-0.7599 Y0.0710  
G01 X-0.7635 Y0.0661  
G01 X-0.7693 Y0.0603  
G01 X-0.7759 Y0.0555  
G01 X-0.7832 Y0.0518  
G01 X-0.7910 Y0.0493  
G01 X-0.7991 Y0.0480  
G01 X-0.8072 Y0.0480  
G01 X-0.8153 Y0.0493  
G01 X-0.8231 Y0.0518  
G01 X-0.8304 Y0.0555  
G01 X-0.8370 Y0.0603  
G01 X-0.8428 Y0.0661  
G01 X-0.8476 Y0.0727  
G01 X-0.8513 Y0.0800  
G01 X-0.8539 Y0.0878  
G01 X-0.8551 Y0.0959  
G01 X-0.8551 Y0.1041  
G01 X-0.8540 Y0.1114  
G01 X-0.8540 Y0.1710  
G01 X-1.5991 Y0.1710  
G01 X-1.6010 Y0.1709  
G01 X-1.6019 Y0.1710  
G01 X-1.6029 Y0.1710  
G01 X-1.6047 Y0.1714  
G01 X-1.6066 Y0.1716  
G01 X-1.6075 Y0.1719  
G01 X-1.6085 Y0.1721  
G01 X-1.6102 Y0.1729  
G01 X-1.8258 Y0.2463  
G01 X-1.8271 Y0.2460  
G01 X-1.8779 Y0.2460  
G01 X-1.8835 Y0.2471  
G01 X-1.8887 Y0.2493  
G01 X-1.8935 Y0.2525  
G01 X-1.8975 Y0.2565  
G01 X-1.9475 Y0.3065  
G01 X-1.9507 Y0.3113  
G01 X-1.9529 Y0.3165  
G01 X-1.9540 Y0.3221  
G01 X-1.9540 Y0.4529  
G01 X-1.9529 Y0.4585  
G01 X-1.9507 Y0.4637  
G01 X-1.9475 Y0.4685  
G01 X-1.9435 Y0.4725  
G01 X-1.8035 Y0.6125  
G01 X-1.9435 Y0.7525  
G01 X-1.9475 Y0.7565  
G01 X-1.9507 Y0.7613  
G01 X-1.9529 Y0.7665  
G01 X-1.9540 Y0.7721  
G01 X-1.9540 Y0.9379  
G01 X-1.9529 Y0.9435  
G01 X-1.9507 Y0.9487  
G01 X-1.9475 Y0.9535  
G01 X-1.9175 Y0.9835  
G01 X-1.9135 Y0.9875  
G01 X-1.9087 Y0.9907  
G01 X-1.9035 Y0.9929  
G01 X-1.8979 Y0.9940  
G01 X-1.7718 Y0.9940  
G01 X-1.7707 Y0.9941  
G01 X-1.7689 Y0.9940  
G01 X-1.7671 Y0.9940  
G01 X-1.7661 Y0.9938  
G01 X-1.7650 Y0.9937  
G01 X-1.7633 Y0.9932  
G01 X-1.7615 Y0.9929  
G01 X-1.7605 Y0.9925  
G01 X-1.7595 Y0.9922  
G01 X-1.7579 Y0.9914  
G01 X-1.7563 Y0.9907  
G01 X-1.7553 Y0.9901  
G01 X-1.7544 Y0.9896  
G01 X-1.7530 Y0.9885  
G01 X-1.7515 Y0.9875  
G01 X-1.7507 Y0.9867  
G01 X-1.7499 Y0.9861  
G01 X-1.7487 Y0.9847  
G01 X-1.7475 Y0.9835  
G01 X-1.7469 Y0.9826  
G01 X-1.7461 Y0.9817  
G01 X-1.7453 Y0.9802  
G01 X-1.7443 Y0.9787  
G01 X-1.7439 Y0.9777  
G01 X-1.7433 Y0.9768  
G01 X-1.7428 Y0.9751  
G01 X-1.7421 Y0.9735  
G01 X-1.7419 Y0.9724  
G01 X-1.7416 Y0.9713  
G01 X-1.7413 Y0.9696  
G01 X-1.7410 Y0.9679  
G01 X-1.7410 Y0.9668  
G01 X-1.7236 Y0.8231  
G01 X-1.7228 Y0.8223  
G01 X-1.7190 Y0.8166  
G01 X-1.7163 Y0.8102  
G01 X-1.7156 Y0.8066  
G01 X-1.5578 Y0.6488  
G01 X-1.5182 Y0.6290  
G01 X-1.2705 Y0.6290  
G01 X-1.2645 Y0.6350  
G01 X-1.2355 Y0.6350  
G01 X-1.2150 Y0.6145  
G01 X-1.2150 Y0.6115  
G01 X-1.1002 Y0.5350  
G01 X-1.0855 Y0.5350  
G01 X-1.0650 Y0.5145  
G01 X-1.0650 Y0.4855  
G01 X-1.0855 Y0.4650  
G01 X-1.1145 Y0.4650  
G01 X-1.1350 Y0.4855  
G01 X-1.1350 Y0.4885  
G01 X-1.2498 Y0.5650  
G01 X-1.2645 Y0.5650  
G01 X-1.2705 Y0.5710  
G01 X-1.5232 Y0.5710  
G01 X-1.5242 Y0.5709  
G01 X-1.5260 Y0.5710  
G01 X-1.5279 Y0.5710  
G01 X-1.5289 Y0.5712  
G01 X-1.5299 Y0.5713  
G01 X-1.5317 Y0.5718  
G01 X-1.5335 Y0.5721  
G01 X-1.5344 Y0.5725  
G01 X-1.5354 Y0.5728  
G01 X-1.5370 Y0.5736  
G01 X-1.5387 Y0.5743  
G01 X-1.5396 Y0.5749  
G01 X-1.5870 Y0.5986  
G01 X-1.5887 Y0.5993  
G01 X-1.5896 Y0.5999  
G01 X-1.5905 Y0.6003  
G01 X-1.5920 Y0.6015  
G01 X-1.5935 Y0.6025  
G01 X-1.5942 Y0.6032  
G01 X-1.5950 Y0.6038  
G01 X-1.5962 Y0.6052  
G01 X-1.7566 Y0.7656  
G01 X-1.7602 Y0.7663  
G01 X-1.7666 Y0.7690  
G01 X-1.7723 Y0.7728  
G01 X-1.7772 Y0.7777  
G01 X-1.7810 Y0.7834  
G01 X-1.7837 Y0.7898  
G01 X-1.7850 Y0.7966  
G01 X-1.7850 Y0.8034  
G01 X-1.7837 Y0.8102  
G01 X-1.7812 Y0.8162  
G01 X-1.7957 Y0.9360  
G01 X-1.8830 Y0.9360  
G01 X-1.8960 Y0.9230  
G01 X-1.8960 Y0.7870  
G01 X-1.7440 Y0.6350  
G01 X-1.6434 Y0.5344  
G01 X-1.6398 Y0.5337  
G01 X-1.6334 Y0.5310  
G01 X-1.6277 Y0.5272  
G01 X-1.6228 Y0.5223  
G01 X-1.6190 Y0.5166  
G01 X-1.6163 Y0.5102  
G01 X-1.6150 Y0.5034  
G01 X-1.6150 Y0.4966  
G01 X-1.6163 Y0.4898  
G01 X-1.6190 Y0.4834  
G01 X-1.6228 Y0.4777  
G01 X-1.6277 Y0.4728  
G01 X-1.6334 Y0.4690  
G01 X-1.6398 Y0.4663  
G01 X-1.6466 Y0.4650  
G01 X-1.6534 Y0.4650  
G01 X-1.6602 Y0.4663  
G01 X-1.6666 Y0.4690  
G01 X-1.6723 Y0.4728  
G01 X-1.6772 Y0.4777  
G01 X-1.6810 Y0.4834  
G01 X-1.6837 Y0.4898  
G01 X-1.6844 Y0.4934  
G01 X-1.7625 Y0.5715  
G01 X-1.8960 Y0.4380  
G01 X-1.8960 Y0.3370  
G01 X-1.8630 Y0.3040  
G01 X-1.8608 Y0.3040  
G01 X-1.8657 Y0.3362  
G01 X-1.8750 Y0.3455  
G01 X-1.8750 Y0.3745  
G01 X-1.8545 Y0.3950  
G01 X-1.8255 Y0.3950  
G01 X-1.8050 Y0.3745  
G01 X-1.8050 Y0.3455  
G01 X-1.8080 Y0.3425  
G01 X-1.8015 Y0.2993  
G01 X-1.5952 Y0.2290  
G01 X-0.8221 Y0.2290  
G01 X-0.8165 Y0.2279  
G01 X-0.8113 Y0.2257  
G01 X-0.8065 Y0.2225  
G01 X-0.8025 Y0.2185  
G01 X-0.7993 Y0.2137  
G01 X-0.7971 Y0.2085  
G01 X-0.7960 Y0.2029  
G01 X-0.7960 Y0.1515  
G01 X-0.7910 Y0.1507  
G01 X-0.7832 Y0.1482  
G01 X-0.7759 Y0.1445  
G01 X-0.7693 Y0.1397  
G01 X-0.7635 Y0.1339  
G01 X-0.7599 Y0.1290  
G01 X-0.1354 Y0.1290  
G01 X-0.0990 Y0.1587  
G01 X-0.0990 Y0.2499  
G01 X-0.1252 Y0.2597  
G01 X-0.1309 Y0.2540  
G01 X-0.1691 Y0.2540  
G01 X-0.1861 Y0.2710  
G01 X-0.2139 Y0.2710  
G01 X-0.2309 Y0.2540  
G01 X-0.2691 Y0.2540  
G01 X-0.2960 Y0.2809  
G01 X-0.2960 Y0.3191  
G01 X-0.2691 Y0.3460  
G01 X-0.2309 Y0.3460  
G01 X-0.2139 Y0.3290  
G01 X-0.1861 Y0.3290  
G01 X-0.1790 Y0.3361  
G01 X-0.1790 Y0.3639  
G01 X-0.1861 Y0.3710  
G01 X-0.2139 Y0.3710  
G01 X-0.2309 Y0.3540  
G01 X-0.2691 Y0.3540  
G01 X-0.2960 Y0.3809  
G01 X-0.2960 Y0.4191  
G01 X-0.2691 Y0.4460  
G01 X-0.2309 Y0.4460  
G01 X-0.2139 Y0.4290  
G01 X-0.1861 Y0.4290  
G01 X-0.1790 Y0.4361  
G01 X-0.1790 Y0.4639  
G01 X-0.1861 Y0.4710  
G01 X-0.2139 Y0.4710  
G01 X-0.2255 Y0.4594  
G01 X-0.2275 Y0.4565  
G01 X-0.2315 Y0.4525  
G01 X-0.2363 Y0.4493  
G01 X-0.2415 Y0.4471  
G01 X-0.2471 Y0.4460  
G01 X-0.4650 Y0.4460  
G01 X-0.4650 Y0.4355  
G01 X-0.4855 Y0.4150  
G01 X-0.5145 Y0.4150  
G01 X-0.5350 Y0.4355  
G01 X-0.5350 Y0.4440  
G01 X-0.5685 Y0.4775  
G01 X-0.5725 Y0.4815  
G01 X-0.5757 Y0.4863  
G01 X-0.5779 Y0.4915  
G01 X-0.5790 Y0.4971  
G01 X-0.5790 Y0.6795  
G01 X-0.5850 Y0.6855  
G01 X-0.5850 Y0.7145  
G01 X-0.5645 Y0.7350  
G01 X-0.5355 Y0.7350  
G01 X-0.5150 Y0.7145  
G01 X-0.5150 Y0.6855  
G01 X-0.5210 Y0.6795  
G01 X-0.5210 Y0.5120  
G01 X-0.5109 Y0.5019  
G01 X-0.5085 Y0.5029  
G01 X-0.5029 Y0.5040  
G01 X-0.2960 Y0.5040  
G01 X-0.2960 Y0.5191  
G01 X-0.2691 Y0.5460  
G01 X-0.2309 Y0.5460  
G01 X-0.2139 Y0.5290  
G01 X-0.1861 Y0.5290  
G01 X-0.1691 Y0.5460  
G01 X-0.1309 Y0.5460  
G01 X-0.1040 Y0.5191  
G01 X-0.1040 Y0.4809  
G01 X-0.1210 Y0.4639  
G01 X-0.1210 Y0.4361  
G01 X-0.1040 Y0.4191  
G01 X-0.1040 Y0.3809  
G01 X-0.1210 Y0.3639  
G01 X-0.1210 Y0.3361  
G01 X-0.1040 Y0.3191  
G01 X-0.1040 Y0.3137  
G01 X-0.0620 Y0.2980  
G01 X-0.0615 Y0.2979  
G01 X-0.0594 Y0.2970  
G01 X-0.0571 Y0.2962  
G01 X-0.0567 Y0.2959  
G01 X-0.0563 Y0.2957  
G01 X-0.0543 Y0.2944  
G01 X-0.0523 Y0.2931  
G01 X-0.0519 Y0.2928  
G01 X-0.0515 Y0.2925  
G01 X-0.0498 Y0.2909  
G01 X-0.0481 Y0.2892  
G01 X-0.0478 Y0.2888  
G01 X-0.0475 Y0.2885  
G01 X-0.0462 Y0.2865  
G01 X-0.0448 Y0.2846  
G01 X-0.0446 Y0.2841  
G01 X-0.0443 Y0.2837  
G01 X-0.0434 Y0.2816  
G01 X-0.0424 Y0.2794  
G01 X-0.0423 Y0.2789  
G01 X-0.0421 Y0.2785  
G01 X-0.0417 Y0.2761  
G01 X-0.0411 Y0.2738  
G01 X-0.0411 Y0.2733  
G01 X-0.0410 Y0.2729  
G01 X-0.0410 Y0.2705  
G01 X-0.0409 Y0.2681  
G01 X-0.0410 Y0.2676  
G01 X-0.0410 Y0.1464  
G01 X-0.0409 Y0.1450  
G01 X-0.0410 Y0.1436  
G01 X-0.0410 Y0.1421  
G01 X-0.0413 Y0.1407  
G01 X-0.0414 Y0.1393  
G01 X-0.0418 Y0.1379  
G01 X-0.0421 Y0.1365  
G01 X-0.0427 Y0.1352  
G01 X-0.0431 Y0.1338  
G01 X-0.0438 Y0.1326  
G01 X-0.0443 Y0.1313  
G01 X-0.0451 Y0.1301  
G01 X-0.0458 Y0.1288  
G01 X-0.0467 Y0.1277  
G01 X-0.0475 Y0.1265  
G01 X-0.0485 Y0.1255  
G01 X-0.0494 Y0.1244  
G00 Z0.0500  
G00 X-0.1040 Y0.1809  
G01 Z-0.0040 F10    
G01 X-0.1309 Y0.1540  F20    
G01 X-0.1691 Y0.1540  
G01 X-0.1951 Y0.1800  
G01 X-0.2049 Y0.1800  
G01 X-0.2309 Y0.1540  
G01 X-0.2691 Y0.1540  
G01 X-0.2951 Y0.1800  
G01 X-0.5026 Y0.1800  
G01 X-0.5077 Y0.1814  
G01 X-0.5123 Y0.1840  
G01 X-0.5160 Y0.1877  
G01 X-0.5186 Y0.1923  
G01 X-0.5200 Y0.1974  
G01 X-0.5200 Y0.3205  
G01 X-0.5295 Y0.3300  
G01 X-0.7205 Y0.3300  
G01 X-0.7355 Y0.3150  
G01 X-0.7645 Y0.3150  
G01 X-0.7850 Y0.3355  
G01 X-0.7850 Y0.3557  
G01 X-1.2608 Y0.3648  
